; Generated by Kiri:Moto 3.0.D26
; Tue Sep 28 2021 22:34:03 GMT-0400 (Eastern Daylight Time)
; Bed left:0 right:220 top:300 bottom:0
; Bed type: belt
; Target: Creality.CR-30
; --- process ---
; processName = CR30 PLA
; sliceHeight = 0.25
; sliceShells = 3
; sliceShellOrder = in-out
; sliceLayerStart = last
; sliceFillAngle = 45
; sliceFillOverlap = 0.3
; sliceFillSparse = 0
; sliceFillType = hex
; sliceAdaptive = false
; sliceMinHeight = 0
; sliceSupportDensity = 0.25
; sliceSupportOffset = 0.4
; sliceSupportGap = 0
; sliceSupportSize = 6
; sliceSupportArea = 0.25
; sliceSupportExtra = 0
; sliceSupportAngle = 1
; sliceSupportNozzle = 0
; sliceSolidMinArea = 15
; sliceSolidLayers = 0
; sliceBottomLayers = 3
; sliceTopLayers = 3
; firstLayerRate = 10
; firstLayerPrintMult = 1
; firstLayerYOffset = 0
; firstLayerBrim = 0
; firstLayerBeltLead = 3
; firstLayerFanSpeed = 0
; outputTemp = 210
; outputBedTemp = 70
; outputFanSpeed = 255
; outputFeedrate = 30
; outputFinishrate = 30
; outputSeekrate = 80
; outputShellMult = 1.15
; outputFillMult = 1.15
; outputSparseMult = 1.15
; outputRetractDist = 6
; outputRetractSpeed = 70
; outputRetractWipe = 0
; outputRetractDwell = 0
; outputShortPoly = 50
; outputMinSpeed = 5
; outputCoastDist = 0.1
; outputLayerRetract = false
; detectThinWalls = false
; zHopDistance = 0
; antiBacklash = 0
; sliceLineWidth = 0
; sliceFillWidth = 1
; sliceFillRepeat = 1
; sliceFillRate = 0
; sliceSupportSpan = 5
; sliceSupportEnable = false
; firstSliceHeight = 0.25
; firstLayerFillRate = 35
; firstLayerLineMult = 1
; firstLayerNozzleTemp = 0
; firstLayerBedTemp = 0
; firstLayerBrimIn = 0
; firstLayerBrimTrig = 0
; firstLayerBrimComb = 0
; firstLayerBrimGap = 0
; firstLayerBeltBump = 0
; outputRaft = false
; outputRaftSpacing = 0.2
; outputBrimCount = 2
; outputBrimOffset = 2
; outputPurgeTower = true
; outputBeltFirst = false
; outputOriginCenter = false
; outputLoops = 0
; outputInvertX = false
; outputInvertY = false
; arcTolerance = 0
; gcodePauseLayers = null
; ranges = 
; sliceSupportOutline = true
; firstLayerFlatten = 0
; --- startup ---
G28 XY             ; home XY axes
G1 Y50 F1000       ; lift y axis off belt for heating
M107               ; turn off filament cooling fan
M140 S70           ; set bed temp
M104 S210          ; set hot end temp
M105               ; report temps
M190 S70           ; wait for bed
M105               ; report temps
M109 S210          ; wait for hot end
M82                ; absolute extrusion mode
G90                ; absolute positioning mode
G21                ; use metric values
G92 E0             ; reset filament position
G1 Y0.15           ; move head to belt
G1 X200 E50 F800   ; extruder purge line
G1 Z0.3            ; shift belt away 0.3mm
G1 X0 E100         ; extruder purge line
G92 Z0 E0          ; reset bed + extruder position
M117 CR-30 Printing...
G1 E-6.0000 F4200 ; e-retract 6
;; --- layer 0 0.25 @ 4.155 ---
M117 0% layer 0 / 303
M106 S0
G1 X120.0000 Y0.1231 Z5.8761 F4800
G1 E0.0000 F4200 ; e-engage 6
G1 X100.0000 E0.7510 F600
;; --- layer 1 0.25 @ 4.405 ---
M117 0% layer 1 / 303
M106 S255
G1 F4800
G1 Y0.1231 Z6.2296 E0.7604 F600
G1 X120.0000 E1.5114
;; --- layer 2 0.25 @ 4.655 ---
M117 0% layer 2 / 303
G1 F4800
G1 Y0.1231 Z6.5832 E1.5208 F600
G1 X100.0000 E2.2718
;; --- layer 3 0.25 @ 4.905 ---
M117 0% layer 3 / 303
G1 F4800
G1 Y0.1231 Z6.9367 E2.2812 F600
G1 X120.0000 E3.0322
;; --- layer 4 0.25 @ 5.155 ---
M117 0% layer 4 / 303
G1 F4800
G1 Y0.1231 Z7.2903 E3.0416 F600
G1 X100.0000 E3.7927
;; --- layer 5 0.25 @ 5.405 ---
M117 0% layer 5 / 303
G1 F4800
G1 Y0.1231 Z7.6438 E3.8020 F600
G1 X120.0000 E4.5531
;; --- layer 6 0.25 @ 5.655 ---
M117 0% layer 6 / 303
G1 F4800
G1 Y0.1231 Z7.9974 E4.5624 F600
G1 X100.0000 E5.3135
G1 E-0.6865 F4200 ; e-retract 6
;; --- layer 7 0.25 @ 5.905 ---
M117 0% layer 7 / 303
G1 F4800
G1 E5.3135 F4200 ; e-engage 6
G1 Y0.1231 Z8.3509 E5.3229 F600
G1 X120.0000 E6.0739
;; --- layer 8 0.25 @ 6.155 ---
M117 0% layer 8 / 303
G1 F4800
G1 X119.8000 Y0.1231 Z8.7045
G1 X100.2000 E6.8099 F600
G1 Y0.4731 Z8.7045 E6.8230 F1497
G1 X119.8000 E7.5590
G1 Y0.2231 Z8.7045 E7.5684
G1 Y0.1231 Z8.7045 F4800
;; --- layer 9 0.25 @ 6.405 ---
M117 0% layer 9 / 303
G1 X119.4000 Y0.5231 Z9.0580
G1 X100.6000 E8.2744 F1431
M117 1% layer 9 / 303
G1 Y0.5731 Z9.0580 E8.2762
G1 X119.3500 E8.9803
G1 X119.4000 F4800
G1 Y0.5231 Z9.0580
G1 X119.8000 Y0.1231 Z9.0580
G1 X100.2000 E9.7163 F600
G1 Y0.9731 Z9.0580 E9.7482 F1527
G1 X119.8000 E10.4842
G1 Y0.2231 Z9.0580 E10.5124
G1 Y0.1231 Z9.0580 F4800
;; --- layer 10 0.25 @ 6.655 ---
M117 1% layer 10 / 303
G1 X119.4000 Y0.5231 Z9.4116
G1 X100.6000 E11.2184 F1461
G1 Y1.0731 Z9.4116 E11.2390
G1 X119.4000 E11.9450
G1 Y0.6231 Z9.4116 E11.9619
G1 Y0.5231 Z9.4116 F4800
G1 X119.8000 Y0.1231 Z9.4116
G1 X100.2000 E12.6979 F600
G1 Y1.4731 Z9.4116 E12.7486 F1557
G1 X119.8000 E13.4846
G1 Y0.2231 Z9.4116 E13.5315
G1 Y0.1231 Z9.4116 F4800
;; --- layer 11 0.25 @ 6.905 ---
M117 1% layer 11 / 303
G1 X119.0000 Y0.9231 Z9.7651
G1 X101.0000 E14.2074 F1395
G1 Y1.1731 Z9.7651 E14.2168
G1 X119.0000 E14.8927
G1 Y1.0231 Z9.7651 E14.8984
G1 Y0.9231 Z9.7651 F4800
G1 X119.4000 Y0.5231 Z9.7651
G1 X100.6000 E15.6043 F1491
G1 Y1.5731 Z9.7651 E15.6438
G1 X119.4000 E16.3497
G1 Y0.6231 Z9.7651 E16.3854
G1 Y0.5231 Z9.7651 F4800
G1 X119.8000 Y0.1231 Z9.7651
G1 X100.2000 E17.1214 F600
G1 Y1.9731 Z9.7651 E17.1909 F1587
G1 X119.8000 E17.9269
G1 Y0.2231 Z9.7651 E17.9926
G1 Y0.1231 Z9.7651 F4800
;; --- layer 12 0.25 @ 7.155 ---
M117 1% layer 12 / 303
G1 X119.0000 Y0.9231 Z10.1187
G1 X101.0000 E18.6685 F1425
G1 Y1.6731 Z10.1187 E18.6967
G1 X119.0000 E19.3726
G1 Y1.0231 Z10.1187 E19.3970
G1 Y0.9231 Z10.1187 F4800
G1 X119.4000 Y0.5231 Z10.1187
G1 X100.6000 E20.1029 F1521
G1 Y2.0731 Z10.1187 E20.1611
G1 X119.4000 E20.8671
G1 Y0.6231 Z10.1187 E20.9216
G1 Y0.5231 Z10.1187 F4800
G1 X119.8000 Y0.1231 Z10.1187
G1 X100.2000 E21.6576 F600
G1 Y2.4731 Z10.1187 E21.7458 F1617
G1 X119.8000 E22.4818
G1 Y0.2231 Z10.1187 E22.5663
G1 Y0.1231 Z10.1187 F4800
;; --- layer 13 0.25 @ 7.405 ---
M117 1% layer 13 / 303
G1 X119.0000 Y0.9232 Z10.4723
G1 X101.0000 E23.2422 F1455
G1 Y2.1731 Z10.4723 E23.2891
G1 X119.0000 E23.9651
G1 Y1.0232 Z10.4723 E24.0082
G1 Y0.9232 Z10.4723 F4800
G1 X119.4000 Y0.5231 Z10.4723
G1 X100.6000 E24.7142 F1551
M117 2% layer 13 / 303
G1 Y2.5731 Z10.4723 E24.7912
G1 X119.4000 E25.4971
G1 Y0.6231 Z10.4723 E25.5704
G1 Y0.5231 Z10.4723 F4800
G1 X119.8000 Y0.1231 Z10.4723
G1 X100.2000 E26.3064 F600
G1 Y2.9731 Z10.4723 E26.4134 F1647
G1 X119.8000 E27.1494
G1 Y0.2231 Z10.4723 E27.2527
G1 Y0.1231 Z10.4723 F4800
;; --- layer 14 0.25 @ 7.655 ---
M117 2% layer 14 / 303
G1 X119.0000 Y0.9232 Z10.8258
G1 X101.0000 E27.9286 F1485
G1 Y2.6731 Z10.8258 E27.9943
G1 X119.0000 E28.6702
G1 Y1.0232 Z10.8258 E28.7322
G1 Y0.9232 Z10.8258 F4800
G1 X119.4000 Y0.5231 Z10.8258
G1 X100.6000 E29.4381 F1581
G1 Y3.0731 Z10.8258 E29.5339
G1 X119.4000 E30.2398
G1 Y0.6231 Z10.8258 E30.3318
G1 Y0.5231 Z10.8258 F4800
G1 X119.8000 Y0.1231 Z10.8258
G1 X100.2000 E31.0678 F600
G1 Y3.4731 Z10.8258 E31.1936 F1677
G1 X119.8000 E31.9296
G1 Y0.2231 Z10.8258 E32.0517
G1 Y0.1231 Z10.8258 F4800
;; --- layer 15 0.25 @ 7.905 ---
M117 2% layer 15 / 303
G1 X119.0000 Y0.9231 Z11.1794
G1 X101.0000 E32.7276 F1515
G1 Y3.1731 Z11.1794 E32.8121
G1 X119.0000 E33.4880
G1 Y1.0231 Z11.1794 E33.5687
G1 Y0.9231 Z11.1794 F4800
G1 X119.4000 Y0.5231 Z11.1794
G1 X100.6000 E34.2747 F1611
G1 Y3.5731 Z11.1794 E34.3892
G1 X119.4000 E35.0952
G1 Y0.6231 Z11.1794 E35.2060
G1 Y0.5231 Z11.1794 F4800
G1 X119.8000 Y0.1231 Z11.1794
G1 X100.2000 E35.9420 F600
G1 Y3.9731 Z11.1794 E36.0865 F1707
G1 X119.8000 E36.8225
G1 Y0.2231 Z11.1794 E36.9633
G1 Y0.1231 Z11.1794 F4800
;; --- layer 16 0.25 @ 8.155 ---
M117 2% layer 16 / 303
G1 X119.0000 Y0.9232 Z11.5329
G1 X101.0000 E37.6393 F1545
G1 Y3.6731 Z11.5329 E37.7425
G1 X119.0000 E38.4184
G1 Y1.0232 Z11.5329 E38.5180
G1 Y0.9232 Z11.5329 F4800
G1 X119.4000 Y0.5232 Z11.5329
G1 X100.6000 E39.2239 F1641
G1 Y4.0731 Z11.5329 E39.3572
G1 X119.4000 E40.0632
G1 Y0.6232 Z11.5329 E40.1927
G1 Y0.5232 Z11.5329 F4800
G1 X119.8000 Y0.1231 Z11.5329
G1 X100.2000 E40.9287 F600
M117 3% layer 16 / 303
G1 Y4.4731 Z11.5329 E41.0921 F1737
G1 X119.8000 E41.8281
G1 Y0.2231 Z11.5329 E41.9877
G1 Y0.1231 Z11.5329 F4800
;; --- layer 17 0.25 @ 8.405 ---
M117 3% layer 17 / 303
G1 X119.0000 Y0.9232 Z11.8865
G1 X101.0000 E42.6636 F1575
G1 Y4.1731 Z11.8865 E42.7856
G1 X119.0000 E43.4615
G1 Y1.0232 Z11.8865 E43.5798
G1 Y0.9232 Z11.8865 F4800
G1 X119.4000 Y0.5232 Z11.8865
G1 X100.6000 E44.2858 F1671
G1 Y4.5731 Z11.8865 E44.4379
G1 X119.4000 E45.1438
G1 Y0.6232 Z11.8865 E45.2922
G1 Y0.5232 Z11.8865 F4800
G1 X119.8000 Y0.1231 Z11.8865
G1 X100.2000 E46.0282 F600
G1 Y4.9731 Z11.8865 E46.2103 F1767
G1 X119.8000 E46.9463
G1 Y0.2231 Z11.8865 E47.1246
G1 Y0.1231 Z11.8865 F4800
;; --- layer 18 0.25 @ 8.655 ---
M117 3% layer 18 / 303
G1 X119.0000 Y0.9231 Z12.2400
G1 X101.0000 E47.8006 F1605
G1 Y4.6731 Z12.2400 E47.9414
G1 X119.0000 E48.6173
G1 Y1.0231 Z12.2400 E48.7544
G1 Y0.9231 Z12.2400 F4800
G1 X119.4000 Y0.5231 Z12.2400
G1 X100.6000 E49.4603 F1701
G1 Y5.0731 Z12.2400 E49.6312
G1 X119.4000 E50.3371
G1 Y0.6231 Z12.2400 E50.5042
G1 Y0.5231 Z12.2400 F4800
G1 X119.8000 Y0.1231 Z12.2400
G1 X100.2000 E51.2402 F600
G1 Y5.4731 Z12.2400 E51.4411 F1797
G1 X119.8000 E52.1771
G1 Y0.2231 Z12.2400 E52.3743
G1 Y0.1231 Z12.2400 F4800
;; --- layer 19 0.25 @ 8.905 ---
M117 3% layer 19 / 303
G1 X119.0000 Y0.9231 Z12.5936
G1 X101.0000 E53.0502 F1635
G1 Y5.1731 Z12.5936 E53.2098
G1 X119.0000 E53.8857
G1 Y1.0231 Z12.5936 E54.0415
G1 Y0.9231 Z12.5936 F4800
G1 X119.4000 Y0.5231 Z12.5936
G1 X100.6000 E54.7475 F1731
G1 Y5.5731 Z12.5936 E54.9371
G1 X119.4000 E55.6431
G1 Y0.6231 Z12.5936 E55.8290
G1 Y0.5231 Z12.5936 F4800
G1 X119.8000 Y0.1231 Z12.5936
G1 X100.2000 E56.5650 F600
M117 4% layer 19 / 303
G1 Y5.9731 Z12.5936 E56.7846 F1800
G1 X119.8000 E57.5206
G1 Y0.2231 Z12.5936 E57.7366
G1 Y0.1231 Z12.5936 F4800
;; --- layer 20 0.25 @ 9.155 ---
M117 4% layer 20 / 303
G1 X119.0000 Y0.9231 Z12.9471
G1 X101.0000 E58.4125 F1665
G1 Y5.6731 Z12.9471 E58.5908
G1 X119.0000 E59.2668
G1 Y1.0231 Z12.9471 E59.4414
G1 Y0.9231 Z12.9471 F4800
G1 X119.4000 Y0.5231 Z12.9471
G1 X100.6000 E60.1473 F1761
G1 Y6.0731 Z12.9471 E60.3557
G1 X119.4000 E61.0617
G1 Y0.6231 Z12.9471 E61.2664
G1 Y0.5231 Z12.9471 F4800
G1 X119.8000 Y0.1231 Z12.9471
G1 X100.2000 E62.0024 F600
G1 Y6.4731 Z12.9471 E62.2408 F1800
G1 X119.8000 E62.9768
G1 Y0.2231 Z12.9471 E63.2115
G1 Y0.1231 Z12.9471 F4800
;; --- layer 21 0.25 @ 9.405 ---
M117 4% layer 21 / 303
G1 X119.0000 Y0.9231 Z13.3007
G1 X101.0000 E63.8874 F1684
G1 Y5.9942 Z13.3007 E64.0778
G1 X119.0000 E64.7538
G1 Y1.0231 Z13.3007 E64.9404
G1 Y0.9231 Z13.3007 F4800
G1 X119.4000 Y0.5231 Z13.3007
G1 X100.6000 E65.6464 F1780
G1 Y6.3942 Z13.3007 E65.8669
G1 X119.4000 E66.5728
G1 Y0.6231 Z13.3007 E66.7895
G1 Y0.5231 Z13.3007 F4800
G1 X119.8000 Y0.1231 Z13.3007
G1 X100.2000 E67.5255 F600
G1 Y6.7942 Z13.3007 E67.7760 F1800
G1 X119.8000 E68.5120
G1 Y0.2231 Z13.3007 E68.7588
G1 Y0.1231 Z13.3007 F4800
;; --- layer 22 0.25 @ 9.655 ---
M117 4% layer 22 / 303
G1 X119.0000 Y0.9231 Z13.6542
G1 X101.0000 E69.4347 F1684
G1 Y5.9942 Z13.6542 E69.6251
G1 X119.0000 E70.3010
G1 Y1.0231 Z13.6542 E70.4877
G1 Y0.9231 Z13.6542 F4800
G1 X119.4000 Y0.5231 Z13.6542
G1 X100.6000 E71.1937 F1780
G1 Y6.3942 Z13.6542 E71.4141
G1 X119.4000 E72.1201
G1 Y0.6231 Z13.6542 E72.3368
G1 Y0.5231 Z13.6542 F4800
G1 X119.8000 Y0.1231 Z13.6542
G1 X100.2000 E73.0728 F600
M117 5% layer 22 / 303
G1 Y6.7942 Z13.6542 E73.3233 F1800
G1 X119.8000 E74.0593
G1 Y0.2231 Z13.6542 E74.3061
G1 Y0.1231 Z13.6542 F4800
;; --- layer 23 0.25 @ 9.905 ---
M117 5% layer 23 / 303
G1 X119.0000 Y0.9231 Z14.0078
G1 X101.0000 E74.9820 F1684
G1 Y5.9942 Z14.0078 E75.1724
G1 X119.0000 E75.8483
G1 Y1.0231 Z14.0078 E76.0350
G1 Y0.9231 Z14.0078 F4800
G1 X119.4000 Y0.5231 Z14.0078
G1 X100.6000 E76.7409 F1780
G1 Y6.3942 Z14.0078 E76.9614
G1 X119.4000 E77.6674
G1 Y0.6231 Z14.0078 E77.8841
G1 Y0.5231 Z14.0078 F4800
G1 X119.8000 Y0.1231 Z14.0078
G1 X100.2000 E78.6201 F600
G1 Y6.7942 Z14.0078 E78.8706 F1800
G1 X119.8000 E79.6066
G1 Y0.2231 Z14.0078 E79.8533
G1 Y0.1231 Z14.0078 F4800
;; --- layer 24 0.25 @ 10.155 ---
M117 5% layer 24 / 303
G1 X119.0000 Y0.9231 Z14.3613
G1 X101.0000 E80.5293 F1684
G1 Y5.9942 Z14.3613 E80.7197
G1 X119.0000 E81.3956
G1 Y1.0231 Z14.3613 E81.5823
G1 Y0.9231 Z14.3613 F4800
G1 X119.4000 Y0.5231 Z14.3613
G1 X100.6000 E82.2882 F1780
G1 Y6.3942 Z14.3613 E82.5087
G1 X119.4000 E83.2146
G1 Y0.6231 Z14.3613 E83.4314
G1 Y0.5231 Z14.3613 F4800
G1 X119.8000 Y0.1231 Z14.3613
G1 X100.2000 E84.1674 F600
G1 Y6.7942 Z14.3613 E84.4179 F1800
G1 X119.8000 E85.1539
G1 Y0.2231 Z14.3613 E85.4006
G1 Y0.1231 Z14.3613 F4800
;; --- layer 25 0.25 @ 10.405 ---
M117 5% layer 25 / 303
G1 X119.0000 Y0.9231 Z14.7149
G1 X101.0000 E86.0765 F1684
G1 Y5.9942 Z14.7149 E86.2670
G1 X119.0000 E86.9429
G1 Y1.0231 Z14.7149 E87.1295
G1 Y0.9231 Z14.7149 F4800
G1 X119.4000 Y0.5231 Z14.7149
G1 X100.6000 E87.8355 F1780
G1 Y6.3942 Z14.7149 E88.0560
G1 X119.4000 E88.7619
G1 Y0.6231 Z14.7149 E88.9786
M117 6% layer 25 / 303
G1 Y0.5231 Z14.7149 F4800
G1 X119.8000 Y0.1231 Z14.7149
G1 X100.2000 E89.7146 F600
G1 Y6.7942 Z14.7149 E89.9651 F1800
G1 X119.8000 E90.7011
G1 Y0.2231 Z14.7149 E90.9479
G1 Y0.1231 Z14.7149 F4800
;; --- layer 26 0.25 @ 10.655 ---
M117 6% layer 26 / 303
G1 X119.0000 Y0.9231 Z15.0684
G1 X101.0000 E91.6238 F1684
G1 Y5.9942 Z15.0684 E91.8142
G1 X119.0000 E92.4901
G1 Y1.0231 Z15.0684 E92.6768
G1 Y0.9231 Z15.0684 F4800
G1 X119.4000 Y0.5231 Z15.0684
G1 X100.6000 E93.3828 F1780
G1 Y6.3942 Z15.0684 E93.6032
G1 X119.4000 E94.3092
G1 Y0.6231 Z15.0684 E94.5259
G1 Y0.5231 Z15.0684 F4800
G1 X119.8000 Y0.1231 Z15.0684
G1 X100.2000 E95.2619 F600
G1 Y6.7942 Z15.0684 E95.5124 F1800
G1 X119.8000 E96.2484
G1 Y0.2231 Z15.0684 E96.4952
G1 Y0.1231 Z15.0684 F4800
;; --- layer 27 0.25 @ 10.905 ---
M117 6% layer 27 / 303
G1 X119.0000 Y0.9231 Z15.4220
G1 X101.0000 E97.1711 F1684
G1 Y5.9942 Z15.4220 E97.3615
G1 X119.0000 E98.0374
G1 Y1.0231 Z15.4220 E98.2241
G1 Y0.9231 Z15.4220 F4800
G1 X119.4000 Y0.5231 Z15.4220
G1 X100.6000 E98.9301 F1780
G1 Y6.3942 Z15.4220 E99.1505
G1 X119.4000 E99.8565
G1 Y0.6231 Z15.4220 E100.0732
G1 Y0.5231 Z15.4220 F4800
G1 X119.8000 Y0.1231 Z15.4220
G1 X100.2000 E100.8092 F600
G1 Y6.7942 Z15.4220 E101.0597 F1800
G1 X119.8000 E101.7957
G1 Y0.2231 Z15.4220 E102.0424
G1 Y0.1231 Z15.4220 F4800
;; --- layer 28 0.25 @ 11.155 ---
M117 6% layer 28 / 303
G1 X119.0000 Y0.9231 Z15.7756
G1 X101.0000 E102.7184 F1684
G1 Y5.9942 Z15.7756 E102.9088
G1 X119.0000 E103.5847
G1 Y1.0231 Z15.7756 E103.7714
G1 Y0.9231 Z15.7756 F4800
G1 X119.4000 Y0.5231 Z15.7756
G1 X100.6000 E104.4773 F1780
G1 Y6.3942 Z15.7756 E104.6978
G1 X119.4000 E105.4038
M117 7% layer 28 / 303
G1 Y0.6231 Z15.7756 E105.6205
G1 Y0.5231 Z15.7756 F4800
G1 X119.8000 Y0.1231 Z15.7756
G1 X100.2000 E106.3565 F600
G1 Y6.7942 Z15.7756 E106.6070 F1800
G1 X119.8000 E107.3430
G1 Y0.2231 Z15.7756 E107.5897
G1 Y0.1231 Z15.7756 F4800
;; --- layer 29 0.25 @ 11.405 ---
M117 7% layer 29 / 303
G1 X119.0000 Y0.9231 Z16.1291
G1 X101.0000 E108.2656 F1684
G1 Y5.9942 Z16.1291 E108.4561
G1 X119.0000 E109.1320
G1 Y1.0231 Z16.1291 E109.3187
G1 Y0.9231 Z16.1291 F4800
G1 X119.4000 Y0.5231 Z16.1291
G1 X100.6000 E110.0246 F1780
G1 Y6.3942 Z16.1291 E110.2451
G1 X119.4000 E110.9510
G1 Y0.6231 Z16.1291 E111.1677
G1 Y0.5231 Z16.1291 F4800
G1 X119.8000 Y0.1231 Z16.1291
G1 X100.2000 E111.9037 F600
G1 Y6.7942 Z16.1291 E112.1542 F1800
G1 X119.8000 E112.8902
G1 Y0.2231 Z16.1291 E113.1370
G1 Y0.1231 Z16.1291 F4800
;; --- layer 30 0.25 @ 11.655 ---
M117 7% layer 30 / 303
G1 X119.0000 Y0.9231 Z16.4827
G1 X101.0000 E113.8129 F1684
G1 Y5.9942 Z16.4827 E114.0033
G1 X119.0000 E114.6793
G1 Y1.0231 Z16.4827 E114.8659
G1 Y0.9231 Z16.4827 F4800
G1 X119.4000 Y0.5231 Z16.4827
G1 X100.6000 E115.5719 F1780
G1 Y6.3942 Z16.4827 E115.7924
G1 X119.4000 E116.4983
G1 Y0.6231 Z16.4827 E116.7150
G1 Y0.5231 Z16.4827 F4800
