; Generated by Kiri:Moto 3.0.D26
; Tue Sep 28 2021 22:31:22 GMT-0400 (Eastern Daylight Time)
; Bed left:0 right:220 top:300 bottom:0
; Bed type: belt
; Target: Creality.CR-30
; --- process ---
; processName = CR30 PLA
; sliceHeight = 0.25
; sliceShells = 3
; sliceShellOrder = in-out
; sliceLayerStart = last
; sliceFillAngle = 45
; sliceFillOverlap = 0.3
; sliceFillSparse = 0
; sliceFillType = hex
; sliceAdaptive = false
; sliceMinHeight = 0
; sliceSupportDensity = 0.25
; sliceSupportOffset = 0.4
; sliceSupportGap = 0
; sliceSupportSize = 6
; sliceSupportArea = 0.25
; sliceSupportExtra = 0
; sliceSupportAngle = 1
; sliceSupportNozzle = 0
; sliceSolidMinArea = 15
; sliceSolidLayers = 0
; sliceBottomLayers = 3
; sliceTopLayers = 3
; firstLayerRate = 10
; firstLayerPrintMult = 1
; firstLayerYOffset = 0
; firstLayerBrim = 0
; firstLayerBeltLead = 0
; firstLayerFanSpeed = 0
; outputTemp = 210
; outputBedTemp = 70
; outputFanSpeed = 255
; outputFeedrate = 30
; outputFinishrate = 30
; outputSeekrate = 80
; outputShellMult = 1.15
; outputFillMult = 1.15
; outputSparseMult = 1.15
; outputRetractDist = 6
; outputRetractSpeed = 70
; outputRetractWipe = 0
; outputRetractDwell = 0
; outputShortPoly = 50
; outputMinSpeed = 5
; outputCoastDist = 0.1
; outputLayerRetract = false
; detectThinWalls = false
; zHopDistance = 0
; antiBacklash = 0
; sliceLineWidth = 0
; sliceFillWidth = 1
; sliceFillRepeat = 1
; sliceFillRate = 0
; sliceSupportSpan = 5
; sliceSupportEnable = false
; firstSliceHeight = 0.25
; firstLayerFillRate = 35
; firstLayerLineMult = 1
; firstLayerNozzleTemp = 0
; firstLayerBedTemp = 0
; firstLayerBrimIn = 0
; firstLayerBrimTrig = 0
; firstLayerBrimComb = 0
; firstLayerBrimGap = 0
; firstLayerBeltBump = 0
; outputRaft = false
; outputRaftSpacing = 0.2
; outputBrimCount = 2
; outputBrimOffset = 2
; outputPurgeTower = true
; outputBeltFirst = false
; outputOriginCenter = false
; outputLoops = 0
; outputInvertX = false
; outputInvertY = false
; arcTolerance = 0
; gcodePauseLayers = null
; ranges = 
; sliceSupportOutline = true
; firstLayerFlatten = 0
; --- startup ---
G28 XY             ; home XY axes
G1 Y50 F1000       ; lift y axis off belt for heating
M107               ; turn off filament cooling fan
M140 S70           ; set bed temp
M104 S210          ; set hot end temp
M105               ; report temps
M190 S70           ; wait for bed
M105               ; report temps
M109 S210          ; wait for hot end
M82                ; absolute extrusion mode
G90                ; absolute positioning mode
G21                ; use metric values
G92 E0             ; reset filament position
G1 Y0.15           ; move head to belt
G1 X200 E50 F800   ; extruder purge line
G1 Z0.3            ; shift belt away 0.3mm
G1 X0 E100         ; extruder purge line
G92 Z0 E0          ; reset bed + extruder position
M117 CR-30 Printing...
G1 E-6.0000 F4200 ; e-retract 6
;; --- layer 0 0.25 @ 4.035 ---
M117 0% layer 0 / 295
M106 S255
G1 X119.8000 Y0.1245 Z5.7064 F4800
G1 E0.0000 F4200 ; e-engage 6
G1 X100.2000 E0.7360 F600
G1 Y0.4745 Z5.7064 E0.7491 F1497
G1 X119.8000 E1.4851
G1 Y0.2245 Z5.7064 E1.4945
G1 Y0.1245 Z5.7064 F4800
;; --- layer 1 0.25 @ 4.285 ---
M117 0% layer 1 / 295
G1 X119.4000 Y0.5245 Z6.0599
G1 X100.6000 E2.2005 F1431
G1 Y0.5745 Z6.0599 E2.2024
G1 X119.3500 E2.9064
G1 X119.4000 F4800
G1 Y0.5245 Z6.0599
G1 X119.8000 Y0.1245 Z6.0599
G1 X100.2000 E3.6424 F600
G1 Y0.9745 Z6.0599 E3.6744 F1527
G1 X119.8000 E4.4104
G1 Y0.2245 Z6.0599 E4.4385
G1 Y0.1245 Z6.0599 F4800
;; --- layer 2 0.25 @ 4.535 ---
M117 0% layer 2 / 295
G1 X119.4000 Y0.5245 Z6.4135
G1 X100.6000 E5.1445 F1461
G1 Y1.0745 Z6.4135 E5.1651
G1 X119.4000 E5.8711
G1 Y0.6245 Z6.4135 E5.8880
G1 Y0.5245 Z6.4135 F4800
G1 X119.8000 Y0.1245 Z6.4135
G1 X100.2000 E6.6240 F600
G1 Y1.4745 Z6.4135 E6.6747 F1557
G1 X119.8000 E7.4107
G1 Y0.2245 Z6.4135 E7.4576
G1 Y0.1245 Z6.4135 F4800
;; --- layer 3 0.25 @ 4.785 ---
M117 0% layer 3 / 295
G1 X119.0000 Y0.9245 Z6.7670
G1 X101.0000 E8.1336 F1395
M117 1% layer 3 / 295
G1 Y1.1745 Z6.7670 E8.1429
G1 X119.0000 E8.8189
G1 Y1.0245 Z6.7670 E8.8245
G1 Y0.9245 Z6.7670 F4800
G1 X119.4000 Y0.5245 Z6.7670
G1 X100.6000 E9.5304 F1491
G1 Y1.5745 Z6.7670 E9.5699
G1 X119.4000 E10.2758
G1 Y0.6245 Z6.7670 E10.3115
G1 Y0.5245 Z6.7670 F4800
G1 X119.8000 Y0.1245 Z6.7670
G1 X100.2000 E11.0475 F600
G1 Y1.9745 Z6.7670 E11.1170 F1587
G1 X119.8000 E11.8530
G1 Y0.2245 Z6.7670 E11.9187
G1 Y0.1245 Z6.7670 F4800
;; --- layer 4 0.25 @ 5.035 ---
M117 1% layer 4 / 295
G1 X119.0000 Y0.9245 Z7.1206
G1 X101.0000 E12.5946 F1425
G1 Y1.6745 Z7.1206 E12.6228
G1 X119.0000 E13.2987
G1 Y1.0245 Z7.1206 E13.3231
G1 Y0.9245 Z7.1206 F4800
G1 X119.4000 Y0.5245 Z7.1206
G1 X100.6000 E14.0291 F1521
G1 Y2.0745 Z7.1206 E14.0873
G1 X119.4000 E14.7932
G1 Y0.6245 Z7.1206 E14.8477
G1 Y0.5245 Z7.1206 F4800
G1 X119.8000 Y0.1245 Z7.1206
G1 X100.2000 E15.5837 F600
G1 Y2.4745 Z7.1206 E15.6719 F1617
G1 X119.8000 E16.4079
G1 Y0.2245 Z7.1206 E16.4924
G1 Y0.1245 Z7.1206 F4800
;; --- layer 5 0.25 @ 5.285 ---
M117 1% layer 5 / 295
G1 X119.0000 Y0.9245 Z7.4741
G1 X101.0000 E17.1683 F1455
G1 Y2.1745 Z7.4741 E17.2153
G1 X119.0000 E17.8912
G1 Y1.0245 Z7.4741 E17.9344
G1 Y0.9245 Z7.4741 F4800
G1 X119.4000 Y0.5245 Z7.4741
G1 X100.6000 E18.6403 F1551
G1 Y2.5745 Z7.4741 E18.7173
G1 X119.4000 E19.4233
G1 Y0.6245 Z7.4741 E19.4965
G1 Y0.5245 Z7.4741 F4800
G1 X119.8000 Y0.1245 Z7.4741
G1 X100.2000 E20.2325 F600
G1 Y2.9745 Z7.4741 E20.3395 F1647
G1 X119.8000 E21.0755
G1 Y0.2245 Z7.4741 E21.1788
G1 Y0.1245 Z7.4741 F4800
;; --- layer 6 0.25 @ 5.535 ---
M117 1% layer 6 / 295
G1 X119.0000 Y0.9245 Z7.8277
G1 X101.0000 E21.8547 F1485
G1 Y2.6745 Z7.8277 E21.9204
G1 X119.0000 E22.5963
G1 Y1.0245 Z7.8277 E22.6583
G1 Y0.9245 Z7.8277 F4800
G1 X119.4000 Y0.5245 Z7.8277
G1 X100.6000 E23.3642 F1581
G1 Y3.0745 Z7.8277 E23.4600
G1 X119.4000 E24.1660
M117 2% layer 6 / 295
G1 Y0.6245 Z7.8277 E24.2580
G1 Y0.5245 Z7.8277 F4800
G1 X119.8000 Y0.1245 Z7.8277
G1 X100.2000 E24.9940 F600
G1 Y3.4745 Z7.8277 E25.1198 F1677
G1 X119.8000 E25.8558
G1 Y0.2245 Z7.8277 E25.9778
G1 Y0.1245 Z7.8277 F4800
;; --- layer 7 0.25 @ 5.785 ---
M117 2% layer 7 / 295
G1 X119.0000 Y0.9245 Z8.1812
G1 X101.0000 E26.6537 F1515
G1 Y3.1745 Z8.1812 E26.7382
G1 X119.0000 E27.4141
G1 Y1.0245 Z8.1812 E27.4949
G1 Y0.9245 Z8.1812 F4800
G1 X119.4000 Y0.5245 Z8.1812
G1 X100.6000 E28.2008 F1611
G1 Y3.5745 Z8.1812 E28.3153
G1 X119.4000 E29.0213
G1 Y0.6245 Z8.1812 E29.1321
G1 Y0.5245 Z8.1812 F4800
G1 X119.8000 Y0.1245 Z8.1812
G1 X100.2000 E29.8681 F600
G1 Y3.9745 Z8.1812 E30.0126 F1707
G1 X119.8000 E30.7486
G1 Y0.2245 Z8.1812 E30.8895
G1 Y0.1245 Z8.1812 F4800
;; --- layer 8 0.25 @ 6.035 ---
M117 2% layer 8 / 295
G1 X119.0000 Y0.9245 Z8.5348
G1 X101.0000 E31.5654 F1545
G1 Y3.6745 Z8.5348 E31.6686
G1 X119.0000 E32.3446
G1 Y1.0245 Z8.5348 E32.4441
G1 Y0.9245 Z8.5348 F4800
G1 X119.4000 Y0.5245 Z8.5348
G1 X100.6000 E33.1500 F1641
G1 Y4.0745 Z8.5348 E33.2833
G1 X119.4000 E33.9893
G1 Y0.6245 Z8.5348 E34.1189
G1 Y0.5245 Z8.5348 F4800
G1 X119.8000 Y0.1245 Z8.5348
G1 X100.2000 E34.8549 F600
G1 Y4.4745 Z8.5348 E35.0182 F1737
G1 X119.8000 E35.7542
G1 Y0.2245 Z8.5348 E35.9138
G1 Y0.1245 Z8.5348 F4800
;; --- layer 9 0.25 @ 6.285 ---
M117 2% layer 9 / 295
G1 X119.0000 Y0.9245 Z8.8883
G1 X101.0000 E36.5897 F1575
G1 Y4.1744 Z8.8883 E36.7117
G1 X119.0000 E37.3877
G1 Y1.0245 Z8.8883 E37.5059
G1 Y0.9245 Z8.8883 F4800
G1 X119.4000 Y0.5245 Z8.8883
G1 X100.6000 E38.2119 F1671
G1 Y4.5745 Z8.8883 E38.3640
G1 X119.4000 E39.0699
G1 Y0.6245 Z8.8883 E39.2183
G1 Y0.5245 Z8.8883 F4800
G1 X119.8000 Y0.1245 Z8.8883
G1 X100.2000 E39.9543 F600
G1 Y4.9745 Z8.8883 E40.1364 F1767
G1 X119.8000 E40.8724
M117 3% layer 9 / 295
G1 Y0.2245 Z8.8883 E41.0508
G1 Y0.1245 Z8.8883 F4800
;; --- layer 10 0.25 @ 6.535 ---
M117 3% layer 10 / 295
G1 X119.0000 Y0.9245 Z9.2419
G1 X101.0000 E41.7267 F1605
G1 Y4.6745 Z9.2419 E41.8675
G1 X119.0000 E42.5434
G1 Y1.0245 Z9.2419 E42.6805
G1 Y0.9245 Z9.2419 F4800
G1 X119.4000 Y0.5245 Z9.2419
G1 X100.6000 E43.3864 F1701
G1 Y5.0745 Z9.2419 E43.5573
G1 X119.4000 E44.2633
G1 Y0.6245 Z9.2419 E44.4304
G1 Y0.5245 Z9.2419 F4800
G1 X119.8000 Y0.1245 Z9.2419
G1 X100.2000 E45.1664 F600
G1 Y5.4745 Z9.2419 E45.3673 F1797
G1 X119.8000 E46.1033
G1 Y0.2245 Z9.2419 E46.3004
G1 Y0.1245 Z9.2419 F4800
;; --- layer 11 0.25 @ 6.785 ---
M117 3% layer 11 / 295
G1 X119.0000 Y0.9245 Z9.5954
G1 X101.0000 E46.9763 F1635
G1 Y5.1745 Z9.5954 E47.1359
G1 X119.0000 E47.8118
G1 Y1.0245 Z9.5954 E47.9677
G1 Y0.9245 Z9.5954 F4800
G1 X119.4000 Y0.5245 Z9.5954
G1 X100.6000 E48.6736 F1731
G1 Y5.5745 Z9.5954 E48.8633
G1 X119.4000 E49.5692
G1 Y0.6245 Z9.5954 E49.7551
G1 Y0.5245 Z9.5954 F4800
G1 X119.8000 Y0.1245 Z9.5954
G1 X100.2000 E50.4911 F600
G1 Y5.9745 Z9.5954 E50.7108 F1800
G1 X119.8000 E51.4468
G1 Y0.2245 Z9.5954 E51.6627
G1 Y0.1245 Z9.5954 F4800
;; --- layer 12 0.25 @ 7.035 ---
M117 3% layer 12 / 295
G1 X119.0000 Y0.9245 Z9.9490
G1 X101.0000 E52.3386 F1665
G1 Y5.6745 Z9.9490 E52.5170
G1 X119.0000 E53.1929
G1 Y1.0245 Z9.9490 E53.3675
G1 Y0.9245 Z9.9490 F4800
G1 X119.4000 Y0.5245 Z9.9490
G1 X100.6000 E54.0735 F1761
G1 Y6.0745 Z9.9490 E54.2819
G1 X119.4000 E54.9878
G1 Y0.6245 Z9.9490 E55.1925
G1 Y0.5245 Z9.9490 F4800
G1 X119.8000 Y0.1245 Z9.9490
G1 X100.2000 E55.9285 F600
G1 Y6.4745 Z9.9490 E56.1669 F1800
G1 X119.8000 E56.9029
M117 4% layer 12 / 295
G1 Y0.2245 Z9.9490 E57.1376
G1 Y0.1245 Z9.9490 F4800
;; --- layer 13 0.25 @ 7.285 ---
M117 4% layer 13 / 295
G1 X119.0000 Y0.9245 Z10.3025
G1 X101.0000 E57.8135 F1684
G1 Y5.9955 Z10.3025 E58.0040
G1 X119.0000 E58.6799
G1 Y1.0245 Z10.3025 E58.8666
G1 Y0.9245 Z10.3025 F4800
G1 X119.4000 Y0.5245 Z10.3025
G1 X100.6000 E59.5725 F1780
G1 Y6.3955 Z10.3025 E59.7930
G1 X119.4000 E60.4989
G1 Y0.6245 Z10.3025 E60.7156
G1 Y0.5245 Z10.3025 F4800
G1 X119.8000 Y0.1245 Z10.3025
G1 X100.2000 E61.4516 F600
G1 Y6.7955 Z10.3025 E61.7021 F1800
G1 X119.8000 E62.4381
G1 Y0.2245 Z10.3025 E62.6849
G1 Y0.1245 Z10.3025 F4800
;; --- layer 14 0.25 @ 7.535 ---
M117 4% layer 14 / 295
G1 X119.0000 Y0.9245 Z10.6561
G1 X101.0000 E63.3608 F1684
G1 Y5.9955 Z10.6561 E63.5512
G1 X119.0000 E64.2272
G1 Y1.0245 Z10.6561 E64.4138
G1 Y0.9245 Z10.6561 F4800
G1 X119.4000 Y0.5245 Z10.6561
G1 X100.6000 E65.1198 F1780
G1 Y6.3955 Z10.6561 E65.3403
G1 X119.4000 E66.0462
G1 Y0.6245 Z10.6561 E66.2629
G1 Y0.5245 Z10.6561 F4800
G1 X119.8000 Y0.1245 Z10.6561
G1 X100.2000 E66.9989 F600
G1 Y6.7955 Z10.6561 E67.2494 F1800
G1 X119.8000 E67.9854
G1 Y0.2245 Z10.6561 E68.2322
G1 Y0.1245 Z10.6561 F4800
;; --- layer 15 0.25 @ 7.785 ---
M117 4% layer 15 / 295
G1 X119.0000 Y0.9245 Z11.0097
G1 X101.0000 E68.9081 F1684
G1 Y5.9955 Z11.0097 E69.0985
G1 X119.0000 E69.7744
G1 Y1.0245 Z11.0097 E69.9611
G1 Y0.9245 Z11.0097 F4800
G1 X119.4000 Y0.5245 Z11.0097
G1 X100.6000 E70.6671 F1780
G1 Y6.3955 Z11.0097 E70.8875
G1 X119.4000 E71.5935
G1 Y0.6245 Z11.0097 E71.8102
G1 Y0.5245 Z11.0097 F4800
G1 X119.8000 Y0.1245 Z11.0097
G1 X100.2000 E72.5462 F600
M117 5% layer 15 / 295
G1 Y6.7955 Z11.0097 E72.7967 F1800
G1 X119.8000 E73.5327
G1 Y0.2245 Z11.0097 E73.7795
G1 Y0.1245 Z11.0097 F4800
;; --- layer 16 0.25 @ 8.035 ---
M117 5% layer 16 / 295
G1 X119.0000 Y0.9245 Z11.3632
G1 X101.0000 E74.4554 F1684
G1 Y5.9955 Z11.3632 E74.6458
G1 X119.0000 E75.3217
G1 Y1.0245 Z11.3632 E75.5084
G1 Y0.9245 Z11.3632 F4800
G1 X119.4000 Y0.5245 Z11.3632
G1 X100.6000 E76.2143 F1780
G1 Y6.3955 Z11.3632 E76.4348
G1 X119.4000 E77.1408
G1 Y0.6245 Z11.3632 E77.3575
G1 Y0.5245 Z11.3632 F4800
G1 X119.8000 Y0.1245 Z11.3632
G1 X100.2000 E78.0935 F600
G1 Y6.7955 Z11.3632 E78.3440 F1800
G1 X119.8000 E79.0800
G1 Y0.2245 Z11.3632 E79.3267
G1 Y0.1245 Z11.3632 F4800
;; --- layer 17 0.25 @ 8.285 ---
M117 5% layer 17 / 295
G1 X119.0000 Y0.9245 Z11.7168
G1 X101.0000 E80.0027 F1684
G1 Y5.9955 Z11.7168 E80.1931
G1 X119.0000 E80.8690
G1 Y1.0245 Z11.7168 E81.0557
G1 Y0.9245 Z11.7168 F4800
G1 X119.4000 Y0.5245 Z11.7168
G1 X100.6000 E81.7616 F1780
G1 Y6.3955 Z11.7168 E81.9821
G1 X119.4000 E82.6880
G1 Y0.6245 Z11.7168 E82.9048
G1 Y0.5245 Z11.7168 F4800
G1 X119.8000 Y0.1245 Z11.7168
G1 X100.2000 E83.6408 F600
G1 Y6.7955 Z11.7168 E83.8913 F1800
G1 X119.8000 E84.6273
G1 Y0.2245 Z11.7168 E84.8740
G1 Y0.1245 Z11.7168 F4800
;; --- layer 18 0.25 @ 8.535 ---
M117 5% layer 18 / 295
G1 X119.0000 Y0.9245 Z12.0703
G1 X101.0000 E85.5499 F1684
G1 Y5.9955 Z12.0703 E85.7404
G1 X119.0000 E86.4163
G1 Y1.0245 Z12.0703 E86.6029
G1 Y0.9245 Z12.0703 F4800
G1 X119.4000 Y0.5245 Z12.0703
G1 X100.6000 E87.3089 F1780
G1 Y6.3955 Z12.0703 E87.5294
G1 X119.4000 E88.2353
G1 Y0.6245 Z12.0703 E88.4520
M117 6% layer 18 / 295
G1 Y0.5245 Z12.0703 F4800
G1 X119.8000 Y0.1245 Z12.0703
G1 X100.2000 E89.1880 F600
G1 Y6.7955 Z12.0703 E89.4385 F1800
G1 X119.8000 E90.1745
G1 Y0.2245 Z12.0703 E90.4213
G1 Y0.1245 Z12.0703 F4800
;; --- layer 19 0.25 @ 8.785 ---
M117 6% layer 19 / 295
G1 X119.0000 Y0.9245 Z12.4239
G1 X101.0000 E91.0972 F1684
G1 Y5.9955 Z12.4239 E91.2876
G1 X119.0000 E91.9635
G1 Y1.0245 Z12.4239 E92.1502
G1 Y0.9245 Z12.4239 F4800
G1 X119.4000 Y0.5245 Z12.4239
G1 X100.6000 E92.8562 F1780
G1 Y6.3955 Z12.4239 E93.0766
G1 X119.4000 E93.7826
G1 Y0.6245 Z12.4239 E93.9993
G1 Y0.5245 Z12.4239 F4800
G1 X119.8000 Y0.1245 Z12.4239
G1 X100.2000 E94.7353 F600
G1 Y6.7955 Z12.4239 E94.9858 F1800
G1 X119.8000 E95.7218
G1 Y0.2245 Z12.4239 E95.9686
G1 Y0.1245 Z12.4239 F4800
;; --- layer 20 0.25 @ 9.035 ---
M117 6% layer 20 / 295
G1 X119.0000 Y0.9245 Z12.7774
G1 X101.0000 E96.6445 F1684
G1 Y5.9955 Z12.7774 E96.8349
G1 X119.0000 E97.5108
G1 Y1.0245 Z12.7774 E97.6975
G1 Y0.9245 Z12.7774 F4800
G1 X119.4000 Y0.5245 Z12.7774
G1 X100.6000 E98.4035 F1780
G1 Y6.3955 Z12.7774 E98.6239
G1 X119.4000 E99.3299
G1 Y0.6245 Z12.7774 E99.5466
G1 Y0.5245 Z12.7774 F4800
G1 X119.8000 Y0.1245 Z12.7774
G1 X100.2000 E100.2826 F600
G1 Y6.7955 Z12.7774 E100.5331 F1800
G1 X119.8000 E101.2691
G1 Y0.2245 Z12.7774 E101.5158
G1 Y0.1245 Z12.7774 F4800
;; --- layer 21 0.25 @ 9.285 ---
M117 6% layer 21 / 295
G1 X119.0000 Y0.9245 Z13.1310
G1 X101.0000 E102.1918 F1684
G1 Y5.9955 Z13.1310 E102.3822
G1 X119.0000 E103.0581
G1 Y1.0245 Z13.1310 E103.2448
G1 Y0.9245 Z13.1310 F4800
G1 X119.4000 Y0.5245 Z13.1310
G1 X100.6000 E103.9507 F1780
G1 Y6.3955 Z13.1310 E104.1712
G1 X119.4000 E104.8772
M117 7% layer 21 / 295
G1 Y0.6245 Z13.1310 E105.0939
G1 Y0.5245 Z13.1310 F4800
G1 X119.8000 Y0.1245 Z13.1310
G1 X100.2000 E105.8299 F600
G1 Y6.7955 Z13.1310 E106.0804 F1800
G1 X119.8000 E106.8164
G1 Y0.2245 Z13.1310 E107.0631
G1 Y0.1245 Z13.1310 F4800
;; --- layer 22 0.25 @ 9.535 ---
M117 7% layer 22 / 295
G1 X119.0000 Y0.9245 Z13.4845
G1 X101.0000 E107.7390 F1684
G1 Y5.9955 Z13.4845 E107.9295
G1 X119.0000 E108.6054
G1 Y1.0245 Z13.4845 E108.7921
G1 Y0.9245 Z13.4845 F4800
G1 X119.4000 Y0.5245 Z13.4845
G1 X100.6000 E109.4980 F1780
G1 Y6.3955 Z13.4845 E109.7185
G1 X119.4000 E110.4244
G1 Y0.6245 Z13.4845 E110.6411
G1 Y0.5245 Z13.4845 F4800
G1 X119.8000 Y0.1245 Z13.4845
G1 X100.2000 E111.3771 F600
G1 Y6.7955 Z13.4845 E111.6276 F1800
G1 X119.8000 E112.3636
G1 Y0.2245 Z13.4845 E112.6104
G1 Y0.1245 Z13.4845 F4800
;; --- layer 23 0.25 @ 9.785 ---
M117 7% layer 23 / 295
G1 X119.0000 Y0.9245 Z13.8381
G1 X101.0000 E113.2863 F1684
G1 Y5.9955 Z13.8381 E113.4767
G1 X119.0000 E114.1527
G1 Y1.0245 Z13.8381 E114.3393
G1 Y0.9245 Z13.8381 F4800
G1 X119.4000 Y0.5245 Z13.8381
G1 X100.6000 E115.0453 F1780
G1 Y6.3955 Z13.8381 E115.2658
G1 X119.4000 E115.9717
G1 Y0.6245 Z13.8381 E116.1884
G1 Y0.5245 Z13.8381 F4800
G1 X119.8000 Y0.1245 Z13.8381
G1 X100.2000 E116.9244 F600
G1 Y6.7955 Z13.8381 E117.1749 F1800
G1 X119.8000 E117.9109
G1 Y0.2245 Z13.8381 E118.1577
G1 Y0.1245 Z13.8381 F4800
;; --- layer 24 0.25 @ 10.035 ---
M117 7% layer 24 / 295
G1 X119.0000 Y0.9245 Z14.1916
G1 X101.0000 E118.8336 F1684
G1 Y5.9955 Z14.1916 E119.0240
G1 X119.0000 E119.6999
G1 Y1.0245 Z14.1916 E119.8866
G1 Y0.9245 Z14.1916 F4800
G1 X119.4000 Y0.5245 Z14.1916
G1 X100.6000 E120.5926 F1780
G1 Y6.3955 Z14.1916 E120.8130
M117 8% layer 24 / 295
G1 X119.4000 E121.5190
G1 Y0.6245 Z14.1916 E121.7357
G1 Y0.5245 Z14.1916 F4800
