; Generated by Kiri:Moto 3.0.D15
; Wed Jul 21 2021 11:51:56 GMT-0400 (Eastern Daylight Time)
; Bed left:0 right:215 top:500 bottom:0
; Bed type: belt
; Target: Creality CR-30 Lab
; --- process ---
; processName = CR30 PLA
; sliceHeight = 0.25
; sliceShells = 3
; sliceShellOrder = in-out
; sliceLayerStart = last
; sliceFillAngle = 45
; sliceFillOverlap = 0.3
; sliceFillSparse = 0
; sliceFillType = hex
; sliceAdaptive = false
; sliceMinHeight = 0
; sliceSupportDensity = 0.2
; sliceSupportOffset = 0.5
; sliceSupportGap = 0
; sliceSupportSize = 20
; sliceSupportArea = 0.25
; sliceSupportExtra = 0
; sliceSupportAngle = 1
; sliceSupportNozzle = 0
; sliceSolidMinArea = 10
; sliceSolidLayers = 0
; sliceBottomLayers = 0
; sliceTopLayers = 3
; firstLayerRate = 15
; firstLayerPrintMult = 1
; firstLayerYOffset = 0
; firstLayerBrim = 0
; firstLayerBeltLead = 0
; firstLayerFanSpeed = 0
; outputTemp = 220
; outputBedTemp = 65
; outputFanSpeed = 255
; outputFeedrate = 100
; outputFinishrate = 100
; outputSeekrate = 120
; outputShellMult = 1.2
; outputFillMult = 1.2
; outputSparseMult = 1.2
; outputRetractDist = 5
; outputRetractSpeed = 60
; outputRetractWipe = 0
; outputRetractDwell = 50
; outputShortPoly = 0
; outputMinSpeed = 5
; outputCoastDist = 0
; outputLayerRetract = false
; detectThinWalls = true
; zHopDistance = 0
; antiBacklash = 0
; outputOriginCenter = false
; sliceFillWidth = 1
; sliceFillRepeat = 1
; sliceFillRate = 120
; sliceSupportEnable = false
; firstSliceHeight = 0.25
; firstLayerFillRate = 20
; firstLayerLineMult = 1
; firstLayerNozzleTemp = 0
; firstLayerBedTemp = 0
; firstLayerBrimIn = 0
; firstLayerBrimTrig = 0
; firstLayerBrimComb = 0
; firstLayerBrimGap = 0
; firstLayerBeltBump = 0
; outputRaft = false
; outputRaftSpacing = 0.2
; outputBrimCount = 0
; outputBrimOffset = 0
; outputPurgeTower = true
; outputBeltFirst = false
; outputLoops = 0
; outputPeelGuard = 0
; outputInvertX = false
; outputInvertY = false
; arcTolerance = 0.2
; ranges = 
; gcodePauseLayers = null
; sliceLineWidth = 0
; sliceSupportSpan = 5
; --- startup ---
M107               ; turn off filament cooling fan
M140 S65           ; set bed temp
M104 S220          ; set hot end temp
M105               ; report temps
M190 S65           ; wait for bed
M105               ; report temps
M109 S220          ; wait for hot end
M82                ; absolute extrusion mode
G90                ; absolute positioning mode
G21                ; use metric values
G28                ; home axes
G92 E0             ; reset filament position
G1 Y0.15           ; move head to belt
G1 X200 E50 F800   ; extruder purge line
G1 Z0.3            ; shift belt away 0.3mm
G1 X0 E100         ; extruder purge line
G92 Z0 E0          ; reset bed + extruder position
M117 CR-30 Printing...
G1 E-5.0000 F3600 ; e-retract 5
;; --- layer 0 0.250 @ 0.755 ---
M117 layer 0 / 293
SET_PRESSURE_ADVANCE ADVANCE=0
M106 S255
G1 X119.2891 Y0.1264 Z1.0677 F7200
G1 E0.0000 F3600 ; e-engage 5
G4 P50
G1 X94.6891 E0.9639 F900
G1 Y0.9764 Z1.0677 E0.9972 F6000
G1 X119.2891 E1.9611
G1 Y0.1264 Z1.0677 E1.9944
;; --- layer 1 0.250 @ 1.005 ---
M117 layer 1 / 293
SET_PRESSURE_ADVANCE ADVANCE=0.0034
G1 F7200
G1 X118.8891 Y0.5264 Z1.4213
G1 X95.0891 E2.9270 F6000
G1 Y1.0764 Z1.4213 E2.9486
G1 X118.8891 E3.8811
G1 Y0.5264 Z1.4213 E3.9027
G1 X119.2891 Y0.1264 Z1.4213 F7200
G1 X94.6891 E4.8666 F900
G1 Y1.4764 Z1.4213 E4.9195 F6000
G1 X119.2891 E5.8834
G1 Y0.1264 Z1.4213 E5.9363
;; --- layer 2 0.250 @ 1.255 ---
M117 layer 2 / 293
SET_PRESSURE_ADVANCE ADVANCE=0.0068
G1 F7200
G1 X118.8891 Y0.5264 Z1.7748
G1 X95.0891 E6.8689 F6000
G1 Y1.5764 Z1.7748 E6.9100
G1 X118.8891 E7.8426
G1 Y0.5264 Z1.7748 E7.8838
G1 X119.2891 Y0.1264 Z1.7748 F7200
G1 X94.6891 E8.8477 F900
G1 Y1.9764 Z1.7748 E8.9202 F6000
G1 X119.2891 E9.8841
G1 Y0.1264 Z1.7748 E9.9566
;; --- layer 3 0.250 @ 1.505 ---
M117 layer 3 / 293
SET_PRESSURE_ADVANCE ADVANCE=0.0102
G1 F7200
G1 X118.4891 Y0.9264 Z2.1284
G1 X95.4891 E10.8578 F6000
M73 P1.024
G1 Y1.6764 Z2.1284 E10.8872
G1 X118.4891 E11.7884
G1 Y0.9264 Z2.1284 E11.8178
G1 X118.8891 Y0.5264 Z2.1284 F7200
G1 X95.0891 E12.7504 F6000
G1 Y2.0764 Z2.1284 E12.8111
G1 X118.8891 E13.7437
G1 Y0.5264 Z2.1284 E13.8044
G1 X119.2891 Y0.1264 Z2.1284 F7200
G1 X94.6891 E14.7683 F900
G1 Y2.4764 Z2.1284 E14.8604 F6000
G1 X119.2891 E15.8243
G1 Y0.1264 Z2.1284 E15.9164
;; --- layer 4 0.250 @ 1.755 ---
M117 layer 4 / 293
SET_PRESSURE_ADVANCE ADVANCE=0.0137
G1 F7200
G1 X118.4891 Y0.9264 Z2.4819
G1 X95.4891 E16.8176 F6000
G1 Y2.1764 Z2.4819 E16.8666
G1 X118.4891 E17.7678
G1 Y0.9264 Z2.4819 E17.8168
G1 X118.8891 Y0.5264 Z2.4819 F7200
G1 X95.0891 E18.7494 F6000
G1 Y2.5764 Z2.4819 E18.8297
G1 X118.8891 E19.7623
G1 Y0.5264 Z2.4819 E19.8426
G1 X119.2891 Y0.1264 Z2.4819 F7200
G1 X94.6891 E20.8065 F900
G1 Y2.9764 Z2.4819 E20.9182 F6000
G1 X119.2891 E21.8821
G1 Y0.1264 Z2.4819 E21.9938
;; --- layer 5 0.250 @ 2.005 ---
M117 layer 5 / 293
SET_PRESSURE_ADVANCE ADVANCE=0.0171
G1 F7200
G1 X118.4891 Y0.9264 Z2.8355
G1 X95.4891 E22.8950 F6000
G1 Y2.6764 Z2.8355 E22.9636
G1 X118.4891 E23.8648
G1 Y0.9264 Z2.8355 E23.9334
G1 X118.8891 Y0.5264 Z2.8355 F7200
G1 X95.0891 E24.8660 F6000
G1 Y3.0764 Z2.8355 E24.9659
G1 X118.8891 E25.8984
G1 Y0.5264 Z2.8355 E25.9984
G1 X119.2891 Y0.1264 Z2.8355 F7200
G1 X94.6891 E26.9623 F900
G1 Y3.4764 Z2.8355 E27.0935 F6000
G1 X119.2891 E28.0575
G1 Y0.1264 Z2.8355 E28.1887
;; --- layer 6 0.250 @ 2.255 ---
M117 layer 6 / 293
SET_PRESSURE_ADVANCE ADVANCE=0.0205
G1 F7200
G1 X118.4891 Y0.9264 Z3.1891
G1 X95.4891 E29.0900 F6000
G1 Y3.1764 Z3.1891 E29.1781
G1 X118.4891 E30.0793
G1 Y0.9264 Z3.1891 E30.1675
G1 X118.8891 Y0.5264 Z3.1891 F7200
G1 X95.0891 E31.1001 F6000
M73 P2.048
G1 Y3.5764 Z3.1891 E31.2196
G1 X118.8891 E32.1522
G1 Y0.5264 Z3.1891 E32.2717
G1 X119.2891 Y0.1264 Z3.1891 F7200
G1 X94.6891 E33.2356 F900
G1 Y3.9764 Z3.1891 E33.3864 F6000
G1 X119.2891 E34.3504
G1 Y0.1264 Z3.1891 E34.5012
;; --- layer 7 0.250 @ 2.505 ---
M117 layer 7 / 293
SET_PRESSURE_ADVANCE ADVANCE=0.0239
G1 F7200
G1 X118.4891 Y0.9264 Z3.5426
G1 X95.4891 E35.4024 F6000
G1 Y3.6764 Z3.5426 E35.5102
G1 X118.4891 E36.4114
G1 Y0.9264 Z3.5426 E36.5192
G1 X118.8891 Y0.5264 Z3.5426 F7200
G1 X95.0891 E37.4518 F6000
G1 Y4.0764 Z3.5426 E37.5909
G1 X118.8891 E38.5234
G1 Y0.5264 Z3.5426 E38.6625
G1 X119.2891 Y0.1264 Z3.5426 F7200
G1 X94.6891 E39.6264 F900
G1 Y4.4764 Z3.5426 E39.7969 F6000
G1 X119.2891 E40.7608
G1 Y0.1264 Z3.5426 E40.9313
;; --- layer 8 0.250 @ 2.755 ---
M117 layer 8 / 293
SET_PRESSURE_ADVANCE ADVANCE=0.0273
G1 F7200
G1 X118.4891 Y0.9264 Z3.8962
G1 X95.4891 E41.8325 F6000
G1 Y4.1764 Z3.8962 E41.9598
G1 X118.4891 E42.8611
G1 Y0.9264 Z3.8962 E42.9884
G1 X118.8891 Y0.5264 Z3.8962 F7200
G1 X95.0891 E43.9210 F6000
G1 Y4.5764 Z3.8962 E44.0797
G1 X118.8891 E45.0122
G1 Y0.5264 Z3.8962 E45.1709
G1 X119.2891 Y0.1264 Z3.8962 F7200
G1 X94.6891 E46.1349 F900
G1 Y4.9764 Z3.8962 E46.3249 F6000
G1 X119.2891 E47.2888
G1 Y0.1264 Z3.8962 E47.4789
;; --- layer 9 0.250 @ 3.005 ---
M117 layer 9 / 293
SET_PRESSURE_ADVANCE ADVANCE=0.0307
G1 F7200
G1 X118.4891 Y0.9264 Z4.2497
G1 X95.4891 E48.3801 F6000
G1 Y4.6764 Z4.2497 E48.5270
G1 X118.4891 E49.4282
G1 Y0.9264 Z4.2497 E49.5752
G1 X118.8891 Y0.5264 Z4.2497 F7200
G1 X95.0891 E50.5078 F6000
M73 P3.072
G1 Y5.0764 Z4.2497 E50.6860
G1 X118.8891 E51.6186
G1 Y0.5264 Z4.2497 E51.7969
G1 X119.2891 Y0.1264 Z4.2497 F7200
G1 X94.6891 E52.7608 F900
G1 Y5.4764 Z4.2497 E52.9704 F6000
G1 X119.2891 E53.9344
G1 Y0.1264 Z4.2497 E54.1440
;; --- layer 10 0.250 @ 3.255 ---
M117 layer 10 / 293
SET_PRESSURE_ADVANCE ADVANCE=0.0341
G1 F7200
G1 X118.4891 Y0.9264 Z4.6033
G1 X95.4891 E55.0452 F6000
G1 Y5.1764 Z4.6033 E55.2118
G1 X118.4891 E56.1130
G1 Y0.9264 Z4.6033 E56.2795
G1 X118.8891 Y0.5264 Z4.6033 F7200
G1 X95.0891 E57.2121 F6000
G1 Y5.5764 Z4.6033 E57.4100
G1 X118.8891 E58.3425
G1 Y0.5264 Z4.6033 E58.5404
G1 X119.2891 Y0.1264 Z4.6033 F7200
G1 X94.6891 E59.5043 F900
G1 Y5.9764 Z4.6033 E59.7335 F6000
G1 X119.2891 E60.6975
G1 Y0.1264 Z4.6033 E60.9267
;; --- layer 11 0.250 @ 3.505 ---
M117 layer 11 / 293
SET_PRESSURE_ADVANCE ADVANCE=0.0375
G1 F7200
G1 X118.4891 Y0.9264 Z4.9568
G1 X95.4891 E61.8279 F6000
G1 Y5.6764 Z4.9568 E62.0140
G1 X118.4891 E62.9153
G1 Y0.9264 Z4.9568 E63.1014
G1 X118.8891 Y0.5264 Z4.9568 F7200
G1 X95.0891 E64.0340 F6000
G1 Y6.0764 Z4.9568 E64.2514
G1 X118.8891 E65.1840
G1 Y0.5264 Z4.9568 E65.4015
G1 X119.2891 Y0.1264 Z4.9568 F7200
G1 X94.6891 E66.3654 F900
G1 Y6.4764 Z4.9568 E66.6142 F6000
G1 X119.2891 E67.5781
G1 Y0.1264 Z4.9568 E67.8269
;; --- layer 12 0.250 @ 3.755 ---
M117 layer 12 / 293
SET_PRESSURE_ADVANCE ADVANCE=0.041
G1 F7200
G1 X118.4891 Y0.9264 Z5.3104
G1 X95.4891 E68.7282 F6000
G1 Y5.9975 Z5.3104 E68.9269
G1 X118.4891 E69.8281
G1 Y0.9264 Z5.3104 E70.0268
G1 X118.8891 Y0.5264 Z5.3104 F7200
G1 X95.0891 E70.9594 F6000
M73 P4.096
G1 Y6.3975 Z5.3104 E71.1894
G1 X118.8891 E72.1220
G1 Y0.5264 Z5.3104 E72.3520
G1 X119.2891 Y0.1264 Z5.3104 F7200
G1 X94.6891 E73.3159 F900
G1 Y6.7975 Z5.3104 E73.5773 F6000
G1 X119.2891 E74.5413
G1 Y0.1264 Z5.3104 E74.8027
;; --- layer 13 0.250 @ 4.005 ---
M117 layer 13 / 293
SET_PRESSURE_ADVANCE ADVANCE=0.0444
G1 F7200
G1 X118.4891 Y0.9264 Z5.6639
G1 X95.4891 E75.7039 F6000
G1 Y5.9975 Z5.6639 E75.9026
G1 X118.4891 E76.8038
G1 Y0.9264 Z5.6639 E77.0025
G1 X118.8891 Y0.5264 Z5.6639 F7200
G1 X95.0891 E77.9351 F6000
G1 Y6.3975 Z5.6639 E78.1651
G1 X118.8891 E79.0977
G1 Y0.5264 Z5.6639 E79.3278
G1 X119.2891 Y0.1264 Z5.6639 F7200
G1 X94.6891 E80.2917 F900
G1 Y6.7975 Z5.6639 E80.5531 F6000
G1 X119.2891 E81.5170
G1 Y0.1264 Z5.6639 E81.7784
;; --- layer 14 0.250 @ 4.255 ---
M117 layer 14 / 293
SET_PRESSURE_ADVANCE ADVANCE=0.0478
G1 F7200
G1 X118.4891 Y0.9264 Z6.0175
G1 X95.4891 E82.6796 F6000
G1 Y5.9975 Z6.0175 E82.8783
G1 X118.4891 E83.7795
G1 Y0.9264 Z6.0175 E83.9782
G1 X118.8891 Y0.5264 Z6.0175 F7200
G1 X95.0891 E84.9108 F6000
G1 Y6.3975 Z6.0175 E85.1409
G1 X118.8891 E86.0734
G1 Y0.5264 Z6.0175 E86.3035
G1 X119.2891 Y0.1264 Z6.0175 F7200
G1 X94.6891 E87.2674 F900
G1 Y6.7975 Z6.0175 E87.5288 F6000
G1 X119.2891 E88.4927
G1 Y0.1264 Z6.0175 E88.7541
;; --- layer 15 0.250 @ 4.505 ---
M117 layer 15 / 293
SET_PRESSURE_ADVANCE ADVANCE=0.0512
G1 F7200
G1 X118.4891 Y0.9264 Z6.3710
G1 X95.4891 E89.6553 F6000
G1 Y5.9975 Z6.3710 E89.8540
G1 X118.4891 E90.7553
M73 P5.119
G1 Y0.9264 Z6.3710 E90.9540
G1 X118.8891 Y0.5264 Z6.3710 F7200
G1 X95.0891 E91.8865 F6000
G1 Y6.3975 Z6.3710 E92.1166
G1 X118.8891 E93.0492
G1 Y0.5264 Z6.3710 E93.2792
G1 X119.2891 Y0.1264 Z6.3710 F7200
G1 X94.6891 E94.2431 F900
G1 Y6.7975 Z6.3710 E94.5045 F6000
G1 X119.2891 E95.4684
G1 Y0.1264 Z6.3710 E95.7298
;; --- layer 16 0.250 @ 4.755 ---
M117 layer 16 / 293
SET_PRESSURE_ADVANCE ADVANCE=0.0546
G1 F7200
G1 X118.4891 Y0.9264 Z6.7246
G1 X95.4891 E96.6311 F6000
G1 Y5.9975 Z6.7246 E96.8298
G1 X118.4891 E97.7310
G1 Y0.9264 Z6.7246 E97.9297
G1 X118.8891 Y0.5264 Z6.7246 F7200
G1 X95.0891 E98.8623 F6000
G1 Y6.3975 Z6.7246 E99.0923
G1 X118.8891 E100.0249
G1 Y0.5264 Z6.7246 E100.2549
G1 X119.2891 Y0.1264 Z6.7246 F7200
G1 X94.6891 E101.2189 F900
G1 Y6.7975 Z6.7246 E101.4803 F6000
G1 X119.2891 E102.4442
G1 Y0.1264 Z6.7246 E102.7056
;; --- layer 17 0.250 @ 5.005 ---
M117 layer 17 / 293
SET_PRESSURE_ADVANCE ADVANCE=0.058
G1 F7200
G1 X118.4891 Y0.9264 Z7.0781
G1 X95.4891 E103.6068 F6000
G1 Y5.9975 Z7.0781 E103.8055
G1 X118.4891 E104.7067
G1 Y0.9264 Z7.0781 E104.9054
G1 X118.8891 Y0.5264 Z7.0781 F7200
G1 X95.0891 E105.8380 F6000
G1 Y6.3975 Z7.0781 E106.0680
G1 X118.8891 E107.0006
G1 Y0.5264 Z7.0781 E107.2307
G1 X119.2891 Y0.1264 Z7.0781 F7200
G1 X94.6891 E108.1946 F900
G1 Y6.7975 Z7.0781 E108.4560 F6000
G1 X119.2891 E109.4199
G1 Y0.1264 Z7.0781 E109.6813
;; --- layer 18 0.250 @ 5.255 ---
M117 layer 18 / 293
SET_PRESSURE_ADVANCE ADVANCE=0.0614
G1 F7200
G1 X118.4891 Y0.9264 Z7.4317
G1 X95.4891 E110.5825 F6000
G1 Y5.9975 Z7.4317 E110.7812
M73 P6.143
G1 X118.4891 E111.6824
G1 Y0.9264 Z7.4317 E111.8811
G1 X118.8891 Y0.5264 Z7.4317 F7200
G1 X95.0891 E112.8137 F6000
G1 Y6.3975 Z7.4317 E113.0438
G1 X118.8891 E113.9763
G1 Y0.5264 Z7.4317 E114.2064
G1 X119.2891 Y0.1264 Z7.4317 F7200
G1 X94.6891 E115.1703 F900
G1 Y6.7975 Z7.4317 E115.4317 F6000
G1 X119.2891 E116.3956
G1 Y0.1264 Z7.4317 E116.6570
;; --- layer 19 0.250 @ 5.505 ---
M117 layer 19 / 293
SET_PRESSURE_ADVANCE ADVANCE=0.0648
G1 F7200
G1 X118.4891 Y0.9264 Z7.7852
G1 X95.4891 E117.5582 F6000
G1 Y5.9975 Z7.7852 E117.7569
G1 X118.4891 E118.6582
G1 Y0.9264 Z7.7852 E118.8569
G1 X118.8891 Y0.5264 Z7.7852 F7200
G1 X95.0891 E119.7894 F6000
G1 Y6.3975 Z7.7852 E120.0195
G1 X118.8891 E120.9521
G1 Y0.5264 Z7.7852 E121.1821
G1 X119.2891 Y0.1264 Z7.7852 F7200
G1 X94.6891 E122.1460 F900
G1 Y6.7975 Z7.7852 E122.4074 F6000
G1 X119.2891 E123.3713
G1 Y0.1264 Z7.7852 E123.6327
;; --- layer 20 0.250 @ 5.755 ---
M117 layer 20 / 293
SET_PRESSURE_ADVANCE ADVANCE=0.0683
G1 F7200
G1 X118.4891 Y0.9264 Z8.1388
G1 X95.4891 E124.5340 F6000
G1 Y5.9975 Z8.1388 E124.7327
G1 X118.4891 E125.6339
G1 Y0.9264 Z8.1388 E125.8326
G1 X118.8891 Y0.5264 Z8.1388 F7200
G1 X95.0891 E126.7652 F6000
G1 Y6.3975 Z8.1388 E126.9952
G1 X118.8891 E127.9278
G1 Y0.5264 Z8.1388 E128.1578
G1 X119.2891 Y0.1264 Z8.1388 F7200
G1 X94.6891 E129.1218 F900
G1 Y6.7975 Z8.1388 E129.3832 F6000
G1 X119.2891 E130.3471
G1 Y0.1264 Z8.1388 E130.6085
;; --- layer 21 0.250 @ 6.005 ---
M117 layer 21 / 293
SET_PRESSURE_ADVANCE ADVANCE=0.0717
G1 F7200
G1 X118.4891 Y0.9264 Z8.4924
G1 X95.4891 E131.5097 F6000
M73 P7.167
G1 Y5.9975 Z8.4924 E131.7084
G1 X118.4891 E132.6096
G1 Y0.9264 Z8.4924 E132.8083
G1 X118.8891 Y0.5264 Z8.4924 F7200
G1 X95.0891 E133.7409 F6000
G1 Y6.3975 Z8.4924 E133.9709
G1 X118.8891 E134.9035
G1 Y0.5264 Z8.4924 E135.1336
G1 X119.2891 Y0.1264 Z8.4924 F7200
G1 X94.6891 E136.0975 F900
G1 Y6.7975 Z8.4924 E136.3589 F6000
G1 X119.2891 E137.3228
G1 Y0.1264 Z8.4924 E137.5842
;; --- layer 22 0.250 @ 6.255 ---
M117 layer 22 / 293
SET_PRESSURE_ADVANCE ADVANCE=0.0751
G1 F7200
G1 X118.4891 Y0.9264 Z8.8459
G1 X95.4891 E138.4854 F6000
G1 Y5.9975 Z8.8459 E138.6841
G1 X118.4891 E139.5853
G1 Y0.9264 Z8.8459 E139.7841
G1 X118.8891 Y0.5264 Z8.8459 F7200
G1 X95.0891 E140.7166 F6000
G1 Y6.3975 Z8.8459 E140.9467
G1 X118.8891 E141.8792
G1 Y0.5264 Z8.8459 E142.1093
G1 X119.2891 Y0.1264 Z8.8459 F7200
G1 X94.6891 E143.0732 F900
G1 Y6.7975 Z8.8459 E143.3346 F6000
G1 X119.2891 E144.2985
G1 Y0.1264 Z8.8459 E144.5599
;; --- layer 23 0.250 @ 6.505 ---
M117 layer 23 / 293
SET_PRESSURE_ADVANCE ADVANCE=0.0785
G1 F7200
G1 X118.4891 Y0.9264 Z9.1995
G1 X95.4891 E145.4611 F6000
G1 Y5.9975 Z9.1995 E145.6599
G1 X118.4891 E146.5611
G1 Y0.9264 Z9.1995 E146.7598
G1 X118.8891 Y0.5264 Z9.1995 F7200
G1 X95.0891 E147.6924 F6000
G1 Y6.3975 Z9.1995 E147.9224
G1 X118.8891 E148.8550
G1 Y0.5264 Z9.1995 E149.0850
G1 X119.2891 Y0.1264 Z9.1995 F7200
G1 X94.6891 E150.0489 F900
G1 Y6.7975 Z9.1995 E150.3103 F6000
G1 X119.2891 E151.2743
M73 P7.85
G1 Y0.1264 Z9.1995 E151.5357
;; --- layer 24 0.250 @ 6.755 ---
M117 layer 24 / 293
SET_PRESSURE_ADVANCE ADVANCE=0.0819
G1 F7200
G1 X118.4891 Y0.9264 Z9.5530
G1 X95.4891 E152.4369 F6000
G1 Y5.9975 Z9.5530 E152.6356
G1 X118.4891 E153.5368
G1 Y0.9264 Z9.5530 E153.7355
G1 X118.8891 Y0.5264 Z9.5530 F7200
G1 X95.0891 E154.6681 F6000
G1 Y6.3975 Z9.5530 E154.8981
G1 X118.8891 E155.8307
G1 Y0.5264 Z9.5530 E156.0608
G1 X119.2891 Y0.1264 Z9.5530 F7200
G1 X94.6891 E157.0247 F900
G1 Y6.7975 Z9.5530 E157.2861 F6000
G1 X119.2891 E158.2500
G1 Y0.1264 Z9.5530 E158.5114
;; --- layer 25 0.250 @ 7.005 ---
M117 layer 25 / 293
SET_PRESSURE_ADVANCE ADVANCE=0.0853
G1 F7200
G1 X118.4891 Y0.9264 Z9.9066
G1 X95.4891 E159.4126 F6000
G1 Y5.9975 Z9.9066 E159.6113
G1 X118.4891 E160.5125
G1 Y0.9264 Z9.9066 E160.7112
G1 X118.8891 Y0.5264 Z9.9066 F7200
G1 X95.0891 E161.6438 F6000
G1 Y6.3975 Z9.9066 E161.8739
G1 X118.8891 E162.8064
G1 Y0.5264 Z9.9066 E163.0365
G1 X119.2891 Y0.1264 Z9.9066 F7200
G1 X94.6891 E164.0004 F900
G1 Y6.7975 Z9.9066 E164.2618 F6000
G1 X119.2891 E165.2257
G1 Y0.1264 Z9.9066 E165.4871
;; --- layer 26 0.250 @ 7.255 ---
M117 layer 26 / 293
