; Generated by Kiri:Moto 2.9.0
; Sun May 09 2021 00:49:06 GMT-0400 (Eastern Daylight Time)
; Bed left:0 right:220 top:400 bottom:0
; Bed type: belt
; Target: Creality CR-30 Copy
; --- process ---
; processName = mik case
; outputOriginCenter = false
; outputInvertX = false
; outputInvertY = false
; sliceHeight = 0.25
; sliceShells = 2
; sliceFillAngle = 45
; sliceFillOverlap = 0.3
; sliceFillSparse = 0.2
; sliceFillType = linear
; sliceSupportDensity = 0.5
; sliceSupportOffset = 0.1
; sliceSupportGap = 0
; sliceSupportSize = 2
; sliceSupportArea = 0
; sliceSupportExtra = 1
; sliceSolidMinArea = 10
; sliceSolidLayers = 3
; sliceBottomLayers = 3
; sliceTopLayers = 3
; firstSliceHeight = 0.1
; firstLayerRate = 20
; firstLayerFillRate = 70
; firstLayerPrintMult = 1.2
; outputRaft = false
; outputRaftSpacing = 0.2
; firstLayerNozzleTemp = 0
; firstLayerBedTemp = 0
; outputTemp = 220
; outputBedTemp = 70
; outputFeedrate = 60
; outputFinishrate = 20
; outputSeekrate = 120
; outputShellMult = 1.05
; outputFillMult = 1.05
; outputSparseMult = 1.05
; outputRetractDist = 3
; outputRetractSpeed = 65
; outputRetractDwell = 30
; outputBrimCount = 2
; outputBrimOffset = 2
; outputShortPoly = 0
; outputMinSpeed = 15
; outputCoastDist = 0.2
; sliceMinHeight = 0.2
; antiBacklash = 0
; zHopDistance = 0
; outputLayerRetract = false
; sliceSupportNozzle = 0
; detectThinWalls = false
; gcodePause = 
; sliceShellOrder = in-out
; sliceAdaptive = false
; sliceSupportAngle = 1
; sliceLayerStart = last
; firstLayerLineMult = 1
; firstLayerYOffset = 0
; firstLayerBrim = 0
; firstLayerBrimTrig = 0
; sliceSupportEnable = false
; sliceFillRate = 0
; firstLayerBeltLead = 300
; firstLayerFanSpeed = 0
; outputFanSpeed = 255
; outputRetractWipe = 0
; arcTolerance = 0
; ranges = 
; sliceFillWidth = 1
; outputPeelGuard = 0
; outputPurgeTower = true
; firstLayerBrimComb = 0
; firstLayerBrimGap = 0
; sliceFillRepeat = 3
; firstLayerBrimIn = 0
; firstLayerBeltBump = 0
; outputBeltFirst = false
; outputLoops = 0
; --- startup ---
M140 S70           ; set bed temp
M104 S220          ; set hot end temp
M105               ; report temps
M190 S70           ; wait for bed
M105               ; report temps
M109 S220          ; wait for hot end
M82                ; absolute extrusion mode
G90                ; absolute positioning mode
G21                ; use metric values
G28                ; home axes
G92 E0             ; reset filament position
G1 Y0.15           ; move head to belt
G92 Z0 E0          ; reset bed + extruder position
;G1 X200 E50 F800   ; extruder purge line
;G1 Z0.3            ; shift belt away 0.3mm
;G1 X0 E100         ; extruder purge line
M117 CR-30 Printing...
G1 E-3.0000 F3900 ; e-retract 3
;; --- layer 0 0.250 @ 0.632 ---
M117 0% layer 0 / 849
M106 S0
G1 Y0.1250 Z0.8938 F7200
G1 E0.0000 F3900 ; e-engage 3
G4 P30
G1 X0.0000 E3.6206 F1200
;; --- layer 1 0.250 @ 0.882 ---
M117 0% layer 1 / 849
M106 S255
G1 F7200
G1 Y0.1250 Z1.2474 E3.6291 F3600
G1 X220.0000 E12.6806 F1200
;; --- layer 2 0.250 @ 1.132 ---
M117 0% layer 2 / 849
G1 F7200
G1 Y0.1250 Z1.6009 E12.6891 F3600
G1 X0.0000 E21.7406 F1200
;; --- layer 3 0.250 @ 1.382 ---
M117 0% layer 3 / 849
G1 F7200
G1 Y0.1250 Z1.9545 E21.7491 F3600
G1 X220.0000 E30.8006 F1200
;; --- layer 4 0.250 @ 1.632 ---
M117 0% layer 4 / 849
G1 F7200
G1 Y0.1250 Z2.3080 E30.8091 F3600
G1 X0.0000 E39.8606 F1200
M117 1% layer 4 / 849
;; --- layer 5 0.250 @ 1.882 ---
M117 1% layer 5 / 849
G1 F7200
G1 Y0.1250 Z2.6616 E39.8691 F3600
G1 X220.0000 E48.9206 F1200
;; --- layer 6 0.250 @ 2.132 ---
M117 1% layer 6 / 849
G1 F7200
G1 Y0.1250 Z3.0152 E48.9291 F3600
G1 X0.0000 E57.9806 F1200
;; --- layer 7 0.250 @ 2.382 ---
M117 1% layer 7 / 849
G1 F7200
G1 Y0.1250 Z3.3687 E57.9891 F3600
G1 X220.0000 E67.0406 F1200
;; --- layer 8 0.250 @ 2.632 ---
M117 1% layer 8 / 849
G1 F7200
G1 Y0.1250 Z3.7223 E67.0491 F3600
G1 X0.0000 E76.1006 F1200
;; --- layer 9 0.250 @ 2.882 ---
M117 1% layer 9 / 849
G1 F7200
G1 Y0.1250 Z4.0758 E76.1091 F3600
G1 X220.0000 E85.1606 F1200
;; --- layer 10 0.250 @ 3.132 ---
M117 1% layer 10 / 849
G1 F7200
G1 Y0.1250 Z4.4294 E85.1691 F3600
G1 X0.0000 E94.2206 F1200
;; --- layer 11 0.250 @ 3.382 ---
M117 1% layer 11 / 849
G1 F7200
G1 Y0.1250 Z4.7829 E94.2291 F3600
G1 X220.0000 E103.2806 F1200
;; --- layer 12 0.250 @ 3.632 ---
M117 1% layer 12 / 849
G1 F7200
G1 Y0.1250 Z5.1365 E103.2891 F3600
G1 X0.0000 E112.3406 F1200
M117 2% layer 12 / 849
;; --- layer 13 0.250 @ 3.882 ---
M117 2% layer 13 / 849
G1 F7200
G1 Y0.1250 Z5.4900 E112.3491 F3600
G1 X220.0000 E121.4006 F1200
;; --- layer 14 0.250 @ 4.132 ---
M117 2% layer 14 / 849
G1 F7200
G1 Y0.1250 Z5.8436 E121.4091 F3600
G1 X0.0000 E130.4606 F1200
;; --- layer 15 0.250 @ 4.382 ---
M117 2% layer 15 / 849
G1 F7200
G1 Y0.1250 Z6.1971 E130.4691 F3600
G1 X220.0000 E139.5206 F1200
;; --- layer 16 0.250 @ 4.632 ---
M117 2% layer 16 / 849
G1 F7200
G1 Y0.1250 Z6.5507 E139.5291 F3600
G1 X0.0000 E148.5806 F1200
;; --- layer 17 0.250 @ 4.882 ---
M117 2% layer 17 / 849
G1 F7200
G1 Y0.1250 Z6.9042 E148.5891 F3600
G1 X220.0000 E157.6406 F1200
;; --- layer 18 0.250 @ 5.132 ---
M117 2% layer 18 / 849
G1 F7200
G1 Y0.1250 Z7.2578 E157.6491 F3600
G1 X0.0000 E166.7006 F1200
;; --- layer 19 0.250 @ 5.382 ---
M117 2% layer 19 / 849
G1 F7200
G1 Y0.1250 Z7.6113 E166.7091 F3600
G1 X220.0000 E175.7606 F1200
;; --- layer 20 0.250 @ 5.632 ---
M117 2% layer 20 / 849
G1 F7200
G1 Y0.1250 Z7.9649 E175.7691 F3600
G1 X0.0000 E184.8206 F1200
;; --- layer 21 0.250 @ 5.882 ---
M117 2% layer 21 / 849
G1 F7200
G1 Y0.1250 Z8.3185 E184.8291 F3600
G1 X220.0000 E193.8806 F1200
M117 3% layer 21 / 849
;; --- layer 22 0.250 @ 6.132 ---
M117 3% layer 22 / 849
G1 F7200
G1 Y0.1250 Z8.6720 E193.8891 F3600
G1 X0.0000 E202.9406 F1200
;; --- layer 23 0.250 @ 6.382 ---
M117 3% layer 23 / 849
G1 F7200
G1 Y0.1250 Z9.0256 E202.9491 F3600
G1 X220.0000 E212.0006 F1200
;; --- layer 24 0.250 @ 6.632 ---
M117 3% layer 24 / 849
G1 F7200
G1 Y0.1250 Z9.3791 E212.0091 F3600
G1 X0.0000 E221.0606 F1200
;; --- layer 25 0.250 @ 6.882 ---
M117 3% layer 25 / 849
G1 F7200
G1 Y0.1250 Z9.7327 E221.0691 F3600
G1 X220.0000 E230.1206 F1200
;; --- layer 26 0.250 @ 7.132 ---
M117 3% layer 26 / 849
G1 F7200
G1 Y0.1250 Z10.0862 E230.1291 F3600
G1 X0.0000 E239.1806 F1200
;; --- layer 27 0.250 @ 7.382 ---
M117 3% layer 27 / 849
G1 F7200
G1 Y0.1250 Z10.4398 E239.1891 F3600
G1 X220.0000 E248.2406 F1200
;; --- layer 28 0.250 @ 7.632 ---
M117 3% layer 28 / 849
G1 F7200
G1 Y0.1250 Z10.7933 E248.2491 F3600
G1 X0.0000 E257.3006 F1200
;; --- layer 29 0.250 @ 7.882 ---
M117 3% layer 29 / 849
G1 F7200
G1 Y0.1250 Z11.1469 E257.3091 F3600
G1 X220.0000 E266.3606 F1200
M117 4% layer 29 / 849
;; --- layer 30 0.250 @ 8.132 ---
M117 4% layer 30 / 849
G1 F7200
G1 Y0.1250 Z11.5004 E266.3691 F3600
G1 X0.0000 E275.4206 F1200
;; --- layer 31 0.250 @ 8.382 ---
M117 4% layer 31 / 849
G1 F7200
G1 Y0.1250 Z11.8540 E275.4291 F3600
G1 X220.0000 E284.4806 F1200
;; --- layer 32 0.250 @ 8.632 ---
M117 4% layer 32 / 849
G1 F7200
G1 Y0.1250 Z12.2075 E284.4891 F3600
G1 X0.0000 E293.5406 F1200
;; --- layer 33 0.250 @ 8.882 ---
M117 4% layer 33 / 849
G1 F7200
G1 Y0.1250 Z12.5611 E293.5491 F3600
G1 X220.0000 E302.6006 F1200
;; --- layer 34 0.250 @ 9.132 ---
M117 4% layer 34 / 849
G1 F7200
G1 Y0.1250 Z12.9146 E302.6091 F3600
G1 X0.0000 E311.6606 F1200
;; --- layer 35 0.250 @ 9.382 ---
M117 4% layer 35 / 849
G1 F7200
G1 Y0.1250 Z13.2682 E311.6691 F3600
G1 X220.0000 E320.7206 F1200
;; --- layer 36 0.250 @ 9.632 ---
M117 4% layer 36 / 849
G1 F7200
G1 Y0.1250 Z13.6218 E320.7291 F3600
G1 X0.0000 E329.7806 F1200
;; --- layer 37 0.250 @ 9.882 ---
M117 4% layer 37 / 849
G1 F7200
G1 Y0.1250 Z13.9753 E329.7891 F3600
G1 X220.0000 E338.8406 F1200
;; --- layer 38 0.250 @ 10.132 ---
M117 4% layer 38 / 849
G1 F7200
G1 Y0.1250 Z14.3289 E338.8491 F3600
G1 X0.0000 E347.9006 F1200
M117 5% layer 38 / 849
;; --- layer 39 0.250 @ 10.382 ---
M117 5% layer 39 / 849
G1 F7200
G1 Y0.1250 Z14.6824 E347.9091 F3600
G1 X220.0000 E356.9606 F1200
;; --- layer 40 0.250 @ 10.632 ---
M117 5% layer 40 / 849
G1 F7200
G1 Y0.1250 Z15.0360 E356.9691 F3600
G1 X0.0000 E366.0206 F1200
;; --- layer 41 0.250 @ 10.882 ---
M117 5% layer 41 / 849
G1 F7200
G1 Y0.1250 Z15.3895 E366.0291 F3600
G1 X220.0000 E375.0806 F1200
;; --- layer 42 0.250 @ 11.132 ---
M117 5% layer 42 / 849
G1 F7200
G1 Y0.1250 Z15.7431 E375.0891 F3600
G1 X0.0000 E384.1406 F1200
;; --- layer 43 0.250 @ 11.382 ---
M117 5% layer 43 / 849
G1 F7200
G1 Y0.1250 Z16.0966 E384.1491 F3600
G1 X220.0000 E393.2006 F1200
;; --- layer 44 0.250 @ 11.632 ---
M117 5% layer 44 / 849
G1 F7200
G1 Y0.1250 Z16.4502 E393.2091 F3600
G1 X0.0000 E402.2606 F1200
;; --- layer 45 0.250 @ 11.882 ---
M117 5% layer 45 / 849
G1 F7200
G1 Y0.1250 Z16.8037 E402.2691 F3600
G1 X220.0000 E411.3206 F1200
;; --- layer 46 0.250 @ 12.132 ---
M117 5% layer 46 / 849
G1 F7200
G1 Y0.1250 Z17.1573 E411.3291 F3600
G1 X0.0000 E420.3806 F1200
M117 6% layer 46 / 849
;; --- layer 47 0.250 @ 12.382 ---
M117 6% layer 47 / 849
G1 F7200
G1 Y0.1250 Z17.5108 E420.3891 F3600
G1 X220.0000 E429.4406 F1200
;; --- layer 48 0.250 @ 12.632 ---
M117 6% layer 48 / 849
G1 F7200
G1 Y0.1250 Z17.8644 E429.4491 F3600
G1 X0.0000 E438.5006 F1200
;; --- layer 49 0.250 @ 12.882 ---
M117 6% layer 49 / 849
G1 F7200
G1 Y0.1250 Z18.2179 E438.5091 F3600
G1 X220.0000 E447.5606 F1200
;; --- layer 50 0.250 @ 13.132 ---
M117 6% layer 50 / 849
G1 F7200
G1 Y0.1250 Z18.5715 E447.5691 F3600
G1 X0.0000 E456.6206 F1200
;; --- layer 51 0.250 @ 13.382 ---
M117 6% layer 51 / 849
G1 F7200
G1 Y0.1250 Z18.9251 E456.6291 F3600
G1 X220.0000 E465.6806 F1200
;; --- layer 52 0.250 @ 13.632 ---
M117 6% layer 52 / 849
G1 F7200
G1 Y0.1250 Z19.2786 E465.6891 F3600
G1 X0.0000 E474.7406 F1200
;; --- layer 53 0.250 @ 13.882 ---
M117 6% layer 53 / 849
G1 F7200
G1 Y0.1250 Z19.6322 E474.7491 F3600
G1 X220.0000 E483.8006 F1200
;; --- layer 54 0.250 @ 14.132 ---
M117 6% layer 54 / 849
G1 F7200
G1 Y0.1250 Z19.9857 E483.8091 F3600
G1 X0.0000 E492.8606 F1200
;; --- layer 55 0.250 @ 14.382 ---
M117 6% layer 55 / 849
G1 F7200
G1 Y0.1250 Z20.3393 E492.8691 F3600
G1 X220.0000 E501.9206 F1200
M117 7% layer 55 / 849
;; --- layer 56 0.250 @ 14.632 ---
M117 7% layer 56 / 849
G1 F7200
G1 Y0.1250 Z20.6928 E501.9291 F3600
G1 X0.0000 E510.9806 F1200
;; --- layer 57 0.250 @ 14.882 ---
M117 7% layer 57 / 849
G1 F7200
G1 Y0.1250 Z21.0464 E510.9891 F3600
G1 X220.0000 E520.0406 F1200
;; --- layer 58 0.250 @ 15.132 ---
M117 7% layer 58 / 849
G1 F7200
G1 Y0.1250 Z21.3999 E520.0491 F3600
G1 X0.0000 E529.1006 F1200
;; --- layer 59 0.250 @ 15.382 ---
M117 7% layer 59 / 849
G1 F7200
G1 Y0.1250 Z21.7535 E529.1091 F3600
G1 X220.0000 E538.1606 F1200
;; --- layer 60 0.250 @ 15.632 ---
M117 7% layer 60 / 849
G1 F7200
G1 Y0.1250 Z22.1070 E538.1691 F3600
G1 X0.0000 E547.2206 F1200
;; --- layer 61 0.250 @ 15.882 ---
M117 7% layer 61 / 849
G1 F7200
G1 Y0.1250 Z22.4606 E547.2291 F3600
G1 X220.0000 E556.2806 F1200
;; --- layer 62 0.250 @ 16.132 ---
M117 7% layer 62 / 849
G1 F7200
G1 Y0.1250 Z22.8141 E556.2891 F3600
G1 X0.0000 E565.3406 F1200
;; --- layer 63 0.250 @ 16.382 ---
M117 7% layer 63 / 849
G1 F7200
G1 Y0.1250 Z23.1677 E565.3491 F3600
G1 X220.0000 E574.4006 F1200
M117 8% layer 63 / 849
;; --- layer 64 0.250 @ 16.632 ---
M117 8% layer 64 / 849
G1 F7200
G1 Y0.1250 Z23.5212 E574.4091 F3600
G1 X0.0000 E583.4606 F1200
;; --- layer 65 0.250 @ 16.882 ---
M117 8% layer 65 / 849
G1 F7200
G1 Y0.1250 Z23.8748 E583.4691 F3600
G1 X220.0000 E592.5206 F1200
;; --- layer 66 0.250 @ 17.132 ---
M117 8% layer 66 / 849
G1 F7200
G1 Y0.1250 Z24.2284 E592.5291 F3600
G1 X0.0000 E601.5806 F1200
;; --- layer 67 0.250 @ 17.382 ---
M117 8% layer 67 / 849
G1 F7200
G1 Y0.1250 Z24.5819 E601.5891 F3600
G1 X220.0000 E610.6406 F1200
;; --- layer 68 0.250 @ 17.632 ---
M117 8% layer 68 / 849
G1 F7200
G1 Y0.1250 Z24.9355 E610.6491 F3600
G1 X0.0000 E619.7006 F1200
;; --- layer 69 0.250 @ 17.882 ---
M117 8% layer 69 / 849
G1 F7200
G1 Y0.1250 Z25.2890 E619.7091 F3600
G1 X220.0000 E628.7606 F1200
;; --- layer 70 0.250 @ 18.132 ---
M117 8% layer 70 / 849
G1 F7200
G1 Y0.1250 Z25.6426 E628.7691 F3600
G1 X0.0000 E637.8206 F1200
;; --- layer 71 0.250 @ 18.382 ---
M117 8% layer 71 / 849
G1 F7200
G1 Y0.1250 Z25.9961 E637.8291 F3600
G1 X220.0000 E646.8806 F1200
;; --- layer 72 0.250 @ 18.632 ---
M117 8% layer 72 / 849
G1 F7200
G1 Y0.1250 Z26.3497 E646.8891 F3600
G1 X0.0000 E655.9406 F1200
M117 9% layer 72 / 849
;; --- layer 73 0.250 @ 18.882 ---
M117 9% layer 73 / 849
G1 F7200
G1 Y0.1250 Z26.7032 E655.9491 F3600
G1 X220.0000 E665.0006 F1200
;; --- layer 74 0.250 @ 19.132 ---
M117 9% layer 74 / 849
G1 F7200
G1 Y0.1250 Z27.0568 E665.0091 F3600
G1 X0.0000 E674.0606 F1200
;; --- layer 75 0.250 @ 19.382 ---
M117 9% layer 75 / 849
G1 F7200
G1 Y0.1250 Z27.4103 E674.0691 F3600
G1 X220.0000 E683.1206 F1200
;; --- layer 76 0.250 @ 19.632 ---
M117 9% layer 76 / 849
G1 F7200
G1 Y0.1250 Z27.7639 E683.1291 F3600
G1 X0.0000 E692.1806 F1200
;; --- layer 77 0.250 @ 19.882 ---
M117 9% layer 77 / 849
G1 F7200
G1 Y0.1250 Z28.1174 E692.1891 F3600
G1 X220.0000 E701.2406 F1200
;; --- layer 78 0.250 @ 20.132 ---
M117 9% layer 78 / 849
G1 F7200
G1 Y0.1250 Z28.4710 E701.2491 F3600
G1 X0.0000 E710.3006 F1200
;; --- layer 79 0.250 @ 20.382 ---
M117 9% layer 79 / 849
G1 F7200
G1 Y0.1250 Z28.8245 E710.3091 F3600
G1 X220.0000 E719.3606 F1200
;; --- layer 80 0.250 @ 20.632 ---
M117 9% layer 80 / 849
G1 F7200
G1 Y0.1250 Z29.1781 E719.3691 F3600
G1 X0.0000 E728.4206 F1200
M117 10% layer 80 / 849
;; --- layer 81 0.250 @ 20.882 ---
M117 10% layer 81 / 849
G1 F7200
G1 Y0.1250 Z29.5317 E728.4291 F3600
G1 X220.0000 E737.4806 F1200
;; --- layer 82 0.250 @ 21.132 ---
M117 10% layer 82 / 849
G1 F7200
G1 Y0.1250 Z29.8852 E737.4891 F3600
G1 X0.0000 E746.5406 F1200
;; --- layer 83 0.250 @ 21.382 ---
M117 10% layer 83 / 849
G1 F7200
G1 Y0.1250 Z30.2388 E746.5491 F3600
G1 X220.0000 E755.6006 F1200
;; --- layer 84 0.250 @ 21.632 ---
M117 10% layer 84 / 849
G1 F7200
G1 Y0.1250 Z30.5923 E755.6091 F3600
G1 X0.0000 E764.6606 F1200
;; --- layer 85 0.250 @ 21.882 ---
M117 10% layer 85 / 849
G1 F7200
G1 Y0.1250 Z30.9459 E764.6691 F3600
G1 X220.0000 E773.7206 F1200
;; --- layer 86 0.250 @ 22.132 ---
M117 10% layer 86 / 849
G1 F7200
G1 Y0.1250 Z31.2994 E773.7291 F3600
G1 X0.0000 E782.7806 F1200
;; --- layer 87 0.250 @ 22.382 ---
M117 10% layer 87 / 849
G1 F7200
G1 Y0.1250 Z31.6530 E782.7891 F3600
G1 X220.0000 E791.8406 F1200
;; --- layer 88 0.250 @ 22.632 ---
M117 10% layer 88 / 849
G1 F7200
G1 Y0.1250 Z32.0065 E791.8491 F3600
G1 X0.0000 E800.9006 F1200
;; --- layer 89 0.250 @ 22.882 ---
M117 10% layer 89 / 849
G1 F7200
G1 Y0.1250 Z32.3601 E800.9091 F3600
G1 X220.0000 E809.9606 F1200
M117 11% layer 89 / 849
;; --- layer 90 0.250 @ 23.132 ---
M117 11% layer 90 / 849
G1 F7200
G1 Y0.1250 Z32.7136 E809.9691 F3600
G1 X0.0000 E819.0206 F1200
;; --- layer 91 0.250 @ 23.382 ---
M117 11% layer 91 / 849
G1 F7200
G1 Y0.1250 Z33.0672 E819.0291 F3600
G1 X220.0000 E828.0806 F1200
;; --- layer 92 0.250 @ 23.632 ---
M117 11% layer 92 / 849
G1 F7200
G1 Y0.1250 Z33.4207 E828.0891 F3600
G1 X0.0000 E837.1406 F1200
;; --- layer 93 0.250 @ 23.882 ---
M117 11% layer 93 / 849
G1 F7200
G1 Y0.1250 Z33.7743 E837.1491 F3600
G1 X220.0000 E846.2006 F1200
;; --- layer 94 0.250 @ 24.132 ---
M117 11% layer 94 / 849
G1 F7200
G1 Y0.1250 Z34.1279 E846.2091 F3600
G1 X0.0000 E855.2606 F1200
;; --- layer 95 0.250 @ 24.382 ---
M117 11% layer 95 / 849
G1 F7200
G1 Y0.1250 Z34.4814 E855.2691 F3600
G1 X220.0000 E864.3206 F1200
;; --- layer 96 0.250 @ 24.632 ---
M117 11% layer 96 / 849
G1 F7200
G1 Y0.1250 Z34.8350 E864.3291 F3600
G1 X0.0000 E873.3806 F1200
;; --- layer 97 0.250 @ 24.882 ---
M117 11% layer 97 / 849
G1 F7200
G1 Y0.1250 Z35.1885 E873.3891 F3600
G1 X220.0000 E882.4406 F1200
M117 12% layer 97 / 849
;; --- layer 98 0.250 @ 25.132 ---
M117 12% layer 98 / 849
G1 F7200
G1 Y0.1250 Z35.5421 E882.4491 F3600
G1 X0.0000 E891.5006 F1200
;; --- layer 99 0.250 @ 25.382 ---
M117 12% layer 99 / 849
G1 F7200
